;FLAVOR:Marlin
;TIME:2239
;Filament used: 0.778925m
;Layer height: 0.2
;MINX:44.704
;MINY:104.704
;MINZ:0.2
;MAXX:70.296
;MAXY:130.295
;MAXZ:56.4
;Generated with Cura_SteamEngine 4.8.0
M140 S50
M105
M190 S50
M104 S200
M105
M109 S200
M82 ;absolute extrusion mode
; Ender 3 Custom Start G-code
G92 E0 ; Reset Extruder
G28 ; Home all axes
G1 Z2.0 F3000 ; Move Z Axis up little to prevent scratching of Heat Bed
G1 X0.1 Y20 Z0.3 F5000.0 ; Move to start position
G1 X0.1 Y200.0 Z0.3 F1500.0 E15 ; Draw the first line
G1 X0.4 Y200.0 Z0.3 F5000.0 ; Move to side a little
G1 X0.4 Y20 Z0.3 F1500.0 E30 ; Draw the second line
G92 E0 ; Reset Extruder
G1 Z2.0 F3000 ; Move Z Axis up little to prevent scratching of Heat Bed
G1 X5 Y20 Z0.3 F5000.0 ; Move over to prevent blob squish
G92 E0
G92 E0
G1 F2700 E-5
;LAYER_COUNT:282
;LAYER:0
M107
G0 F6000 X51.917 Y105.985 Z0.2
;TYPE:SKIRT
G1 F2700 E0
G1 F1200 X52.313 Y105.802 E0.01451
G1 X52.895 Y105.561 E0.03546
G1 X53.306 Y105.41 E0.05002
G1 X53.986 Y105.195 E0.07374
G1 X54.406 Y105.083 E0.0882
G1 X55.058 Y104.939 E0.11041
G1 X55.488 Y104.863 E0.12493
G1 X56.169 Y104.773 E0.14778
G1 X56.605 Y104.735 E0.16234
G1 X57.246 Y104.706 E0.18368
G1 X57.68 Y104.704 E0.19811
G1 X58.393 Y104.733 E0.22185
G1 X58.829 Y104.771 E0.2364
G1 X59.51 Y104.861 E0.25925
G1 X59.94 Y104.937 E0.27377
G1 X60.592 Y105.081 E0.29598
G1 X61.012 Y105.193 E0.31044
G1 X61.692 Y105.408 E0.33416
G1 X62.103 Y105.559 E0.34872
G1 X62.684 Y105.8 E0.36964
G1 X63.078 Y105.982 E0.38408
G1 X63.709 Y106.309 E0.40772
G1 X64.088 Y106.528 E0.42228
G1 X64.657 Y106.89 E0.44471
G1 X65.013 Y107.139 E0.45916
G1 X65.555 Y107.555 E0.48188
G1 X65.89 Y107.836 E0.49642
G1 X66.392 Y108.297 E0.51909
G1 X66.7 Y108.605 E0.53358
G1 X67.16 Y109.106 E0.5562
G1 X67.442 Y109.442 E0.57079
G1 X67.859 Y109.985 E0.59356
G1 X68.108 Y110.341 E0.60801
G1 X68.468 Y110.907 E0.63032
G1 X68.686 Y111.284 E0.64481
G1 X69.015 Y111.917 E0.66854
G1 X69.198 Y112.313 E0.68304
G1 X69.439 Y112.895 E0.704
G1 X69.59 Y113.306 E0.71856
G1 X69.805 Y113.986 E0.74228
G1 X69.917 Y114.406 E0.75674
G1 X70.06 Y115.055 E0.77884
G1 X70.136 Y115.484 E0.79333
G1 X70.226 Y116.166 E0.81621
G1 X70.264 Y116.601 E0.83073
G1 X70.294 Y117.244 E0.85214
G1 X70.296 Y117.68 E0.86665
G1 X70.267 Y118.393 E0.89038
G1 X70.229 Y118.829 E0.90494
G1 X70.139 Y119.51 E0.92778
G1 X70.063 Y119.94 E0.94231
G1 X69.919 Y120.592 E0.96452
G1 X69.807 Y121.012 E0.97897
G1 X69.592 Y121.692 E1.00269
G1 X69.441 Y122.103 E1.01726
G1 X69.2 Y122.684 E1.03818
G1 X69.018 Y123.078 E1.05261
G1 X68.694 Y123.704 E1.07606
G1 X68.476 Y124.082 E1.09057
G1 X68.108 Y124.659 E1.11333
G1 X67.858 Y125.016 E1.12783
G1 X67.445 Y125.555 E1.15041
G1 X67.164 Y125.89 E1.16496
G1 X66.703 Y126.392 E1.18762
G1 X66.395 Y126.7 E1.20211
G1 X65.894 Y127.16 E1.22473
G1 X65.558 Y127.442 E1.23932
G1 X65.015 Y127.859 E1.26209
G1 X64.659 Y128.108 E1.27654
G1 X64.093 Y128.468 E1.29885
G1 X63.716 Y128.686 E1.31334
G1 X63.106 Y129.004 E1.33622
G1 X62.709 Y129.189 E1.35079
G1 X62.088 Y129.446 E1.37314
G1 X61.677 Y129.596 E1.38769
G1 X61.013 Y129.806 E1.41085
G1 X60.593 Y129.918 E1.42531
G1 X59.92 Y130.066 E1.44823
G1 X59.489 Y130.141 E1.46278
G1 X58.849 Y130.225 E1.48425
G1 X58.414 Y130.264 E1.49878
G1 X57.717 Y130.295 E1.52198
G1 X57.283 Y130.295 E1.53642
G1 X56.586 Y130.264 E1.55962
G1 X56.151 Y130.225 E1.57415
G1 X55.493 Y130.137 E1.59623
G1 X55.062 Y130.061 E1.61078
G1 X54.412 Y129.918 E1.63292
G1 X53.991 Y129.806 E1.64741
G1 X53.338 Y129.601 E1.67017
G1 X52.927 Y129.452 E1.68471
G1 X52.291 Y129.19 E1.70759
G1 X51.896 Y129.006 E1.72209
G1 X51.291 Y128.691 E1.74477
G1 X50.915 Y128.474 E1.75921
G1 X50.343 Y128.11 E1.78176
G1 X49.987 Y127.861 E1.79621
G1 X49.444 Y127.444 E1.81898
G1 X49.108 Y127.162 E1.83357
G1 X48.607 Y126.702 E1.85619
G1 X48.299 Y126.394 E1.87068
G1 X47.838 Y125.892 E1.89335
G1 X47.557 Y125.557 E1.90789
G1 X47.144 Y125.018 E1.93048
G1 X46.894 Y124.661 E1.94497
G1 X46.526 Y124.084 E1.96774
G1 X46.308 Y123.706 E1.98225
G1 X45.984 Y123.08 E2.00569
G1 X45.802 Y122.686 E2.02013
G1 X45.561 Y122.105 E2.04105
G1 X45.41 Y121.694 E2.05561
G1 X45.195 Y121.014 E2.07933
G1 X45.083 Y120.594 E2.09379
G1 X44.939 Y119.942 E2.116
G1 X44.863 Y119.512 E2.13052
G1 X44.774 Y118.834 E2.15327
G1 X44.736 Y118.4 E2.16776
G1 X44.706 Y117.756 E2.1892
G1 X44.704 Y117.32 E2.2037
G1 X44.733 Y116.607 E2.22743
G1 X44.771 Y116.171 E2.24199
G1 X44.861 Y115.49 E2.26484
G1 X44.937 Y115.06 E2.27936
G1 X45.081 Y114.408 E2.30157
G1 X45.193 Y113.988 E2.31603
G1 X45.408 Y113.308 E2.33975
G1 X45.559 Y112.897 E2.35431
G1 X45.8 Y112.316 E2.37523
G1 X45.982 Y111.922 E2.38967
G1 X46.306 Y111.296 E2.41311
G1 X46.524 Y110.918 E2.42762
G1 X46.892 Y110.341 E2.45039
G1 X47.142 Y109.984 E2.46488
G1 X47.555 Y109.445 E2.48747
G1 X47.836 Y109.11 E2.50201
G1 X48.297 Y108.608 E2.52468
G1 X48.605 Y108.3 E2.53917
G1 X49.106 Y107.84 E2.56179
G1 X49.442 Y107.558 E2.57638
G1 X49.985 Y107.141 E2.59915
G1 X50.341 Y106.892 E2.6136
G1 X50.907 Y106.532 E2.63591
G1 X51.284 Y106.314 E2.65039
G1 X51.917 Y105.985 E2.67412
G0 F6000 X52.085 Y106.349
G1 F1200 X52.481 Y106.166 E2.68863
G1 X53.033 Y105.937 E2.70851
G1 X53.444 Y105.786 E2.72307
G1 X54.089 Y105.582 E2.74557
G1 X54.509 Y105.47 E2.76003
G1 X55.128 Y105.333 E2.78111
G1 X55.558 Y105.257 E2.79564
G1 X56.203 Y105.172 E2.81728
G1 X56.639 Y105.134 E2.83183
G1 X57.248 Y105.106 E2.85211
G1 X57.682 Y105.104 E2.86654
G1 X58.359 Y105.132 E2.88908
G1 X58.795 Y105.17 E2.90364
G1 X59.44 Y105.255 E2.92528
G1 X59.87 Y105.331 E2.9398
G1 X60.489 Y105.468 E2.96089
G1 X60.909 Y105.58 E2.97534
G1 X61.554 Y105.784 E2.99784
G1 X61.965 Y105.935 E3.01241
G1 X62.516 Y106.163 E3.03224
G1 X62.91 Y106.345 E3.04667
G1 X63.509 Y106.656 E3.06912
G1 X63.888 Y106.875 E3.08368
G1 X64.427 Y107.218 E3.10493
G1 X64.783 Y107.467 E3.11938
G1 X65.298 Y107.861 E3.14095
G1 X65.633 Y108.142 E3.15549
G1 X66.11 Y108.579 E3.17701
G1 X66.418 Y108.887 E3.19149
G1 X66.853 Y109.363 E3.21294
G1 X67.135 Y109.699 E3.22753
G1 X67.531 Y110.215 E3.24916
G1 X67.78 Y110.571 E3.26361
G1 X68.122 Y111.108 E3.28479
G1 X68.34 Y111.485 E3.29927
G1 X68.651 Y112.085 E3.32175
G1 X68.834 Y112.481 E3.33626
G1 X69.063 Y113.033 E3.35614
G1 X69.214 Y113.444 E3.3707
G1 X69.418 Y114.089 E3.3932
G1 X69.53 Y114.509 E3.40766
G1 X69.667 Y115.125 E3.42865
G1 X69.743 Y115.554 E3.44314
G1 X69.828 Y116.201 E3.46484
G1 X69.866 Y116.636 E3.47937
G1 X69.894 Y117.246 E3.49968
G1 X69.896 Y117.682 E3.51418
G1 X69.868 Y118.359 E3.53671
G1 X69.83 Y118.795 E3.55127
G1 X69.745 Y119.44 E3.57291
G1 X69.669 Y119.87 E3.58743
G1 X69.532 Y120.489 E3.60852
G1 X69.42 Y120.909 E3.62298
G1 X69.216 Y121.554 E3.64548
G1 X69.065 Y121.965 E3.66004
G1 X68.837 Y122.516 E3.67987
G1 X68.655 Y122.91 E3.69431
G1 X68.347 Y123.504 E3.71656
G1 X68.129 Y123.882 E3.73108
G1 X67.781 Y124.43 E3.75267
G1 X67.531 Y124.787 E3.76716
G1 X67.139 Y125.298 E3.78858
G1 X66.858 Y125.633 E3.80313
G1 X66.421 Y126.11 E3.82464
G1 X66.113 Y126.418 E3.83913
G1 X65.637 Y126.853 E3.86058
G1 X65.301 Y127.135 E3.87517
G1 X64.785 Y127.531 E3.8968
G1 X64.429 Y127.78 E3.91125
G1 X63.892 Y128.122 E3.93243
G1 X63.515 Y128.34 E3.94691
G1 X62.937 Y128.641 E3.96858
G1 X62.54 Y128.826 E3.98315
G1 X61.951 Y129.071 E4.00437
G1 X61.54 Y129.221 E4.01892
G1 X60.91 Y129.419 E4.04089
G1 X60.49 Y129.531 E4.05534
G1 X59.852 Y129.671 E4.07707
G1 X59.421 Y129.746 E4.09162
G1 X58.813 Y129.826 E4.11201
G1 X58.378 Y129.865 E4.12654
G1 X57.717 Y129.895 E4.14855
G1 X57.283 Y129.895 E4.16298
G1 X56.622 Y129.865 E4.18499
G1 X56.187 Y129.826 E4.19952
G1 X55.563 Y129.744 E4.22045
G1 X55.132 Y129.668 E4.23501
G1 X54.515 Y129.531 E4.25603
G1 X54.094 Y129.419 E4.27052
G1 X53.474 Y129.225 E4.29212
G1 X53.063 Y129.076 E4.30667
G1 X52.46 Y128.827 E4.32836
G1 X52.065 Y128.643 E4.34286
G1 X51.491 Y128.344 E4.36438
G1 X51.115 Y128.127 E4.37882
G1 X50.573 Y127.782 E4.40019
G1 X50.217 Y127.533 E4.41464
G1 X49.701 Y127.137 E4.43627
G1 X49.365 Y126.855 E4.45086
G1 X48.889 Y126.42 E4.47231
G1 X48.581 Y126.112 E4.4868
G1 X48.144 Y125.635 E4.50832
G1 X47.863 Y125.3 E4.52286
G1 X47.471 Y124.789 E4.54428
G1 X47.221 Y124.432 E4.55877
G1 X46.873 Y123.884 E4.58037
G1 X46.655 Y123.506 E4.59488
G1 X46.347 Y122.912 E4.61713
G1 X46.165 Y122.518 E4.63157
G1 X45.937 Y121.967 E4.6514
G1 X45.786 Y121.556 E4.66597
G1 X45.582 Y120.911 E4.68847
G1 X45.47 Y120.491 E4.70292
G1 X45.333 Y119.872 E4.72401
G1 X45.257 Y119.442 E4.73853
G1 X45.172 Y118.799 E4.7601
G1 X45.134 Y118.365 E4.7746
G1 X45.106 Y117.754 E4.79494
G1 X45.104 Y117.318 E4.80944
G1 X45.132 Y116.641 E4.83198
G1 X45.17 Y116.205 E4.84653
G1 X45.255 Y115.56 E4.86817
G1 X45.331 Y115.13 E4.88269
G1 X45.468 Y114.511 E4.90378
G1 X45.58 Y114.091 E4.91824
G1 X45.784 Y113.446 E4.94074
G1 X45.935 Y113.035 E4.9553
G1 X46.163 Y112.484 E4.97513
G1 X46.345 Y112.09 E4.98957
G1 X46.653 Y111.496 E5.01182
G1 X46.871 Y111.118 E5.02634
G1 X47.219 Y110.57 E5.04793
G1 X47.469 Y110.213 E5.06242
G1 X47.861 Y109.702 E5.08385
G1 X48.142 Y109.367 E5.09839
G1 X48.579 Y108.89 E5.1199
G1 X48.887 Y108.582 E5.13439
G1 X49.363 Y108.147 E5.15584
G1 X49.699 Y107.865 E5.17043
G1 X50.215 Y107.469 E5.19206
G1 X50.571 Y107.22 E5.20651
G1 X51.108 Y106.878 E5.22769
G1 X51.485 Y106.66 E5.24217
G1 X52.085 Y106.349 E5.26465
G0 F6000 X52.253 Y106.712
G1 F1200 X52.649 Y106.529 E5.27916
G1 X53.171 Y106.312 E5.29796
G1 X53.582 Y106.161 E5.31252
G1 X54.192 Y105.968 E5.3338
G1 X54.612 Y105.856 E5.34826
G1 X55.198 Y105.727 E5.36822
G1 X55.628 Y105.651 E5.38274
G1 X56.238 Y105.57 E5.40321
G1 X56.674 Y105.532 E5.41777
G1 X57.25 Y105.506 E5.43694
G1 X57.684 Y105.504 E5.45138
G1 X58.324 Y105.53 E5.47268
G1 X58.76 Y105.568 E5.48724
G1 X59.37 Y105.649 E5.50771
G1 X59.8 Y105.725 E5.52223
G1 X60.386 Y105.854 E5.54219
G1 X60.806 Y105.966 E5.55664
G1 X61.416 Y106.159 E5.57792
G1 X61.827 Y106.31 E5.59249
G1 X62.348 Y106.526 E5.61125
G1 X62.742 Y106.708 E5.62568
G1 X63.309 Y107.002 E5.64692
G1 X63.688 Y107.221 E5.66148
G1 X64.198 Y107.546 E5.6816
G1 X64.554 Y107.795 E5.69605
G1 X65.041 Y108.168 E5.71645
G1 X65.376 Y108.449 E5.73099
G1 X65.827 Y108.862 E5.75133
G1 X66.135 Y109.17 E5.76582
G1 X66.547 Y109.62 E5.78611
G1 X66.829 Y109.956 E5.8007
G1 X67.203 Y110.444 E5.82115
G1 X67.452 Y110.8 E5.8356
G1 X67.776 Y111.308 E5.85564
G1 X67.994 Y111.685 E5.87012
G1 X68.288 Y112.253 E5.8914
G1 X68.471 Y112.649 E5.90591
G1 X68.688 Y113.171 E5.92471
G1 X68.839 Y113.582 E5.93927
G1 X69.032 Y114.192 E5.96055
G1 X69.144 Y114.612 E5.97501
G1 X69.273 Y115.195 E5.99487
G1 X69.349 Y115.624 E6.00936
G1 X69.429 Y116.236 E6.02989
G1 X69.467 Y116.671 E6.04441
G1 X69.494 Y117.248 E6.06362
G1 X69.496 Y117.684 E6.07812
G1 X69.47 Y118.324 E6.09943
G1 X69.432 Y118.76 E6.11399
G1 X69.351 Y119.37 E6.13445
G1 X69.275 Y119.8 E6.14898
G1 X69.146 Y120.386 E6.16893
G1 X69.034 Y120.806 E6.18339
G1 X68.841 Y121.416 E6.20467
G1 X68.69 Y121.827 E6.21923
G1 X68.474 Y122.348 E6.23799
G1 X68.292 Y122.742 E6.25243
G1 X68.001 Y123.304 E6.27348
G1 X67.783 Y123.682 E6.28799
G1 X67.453 Y124.2 E6.30842
G1 X67.203 Y124.557 E6.32291
G1 X66.832 Y125.041 E6.3432
G1 X66.551 Y125.376 E6.35774
G1 X66.138 Y125.827 E6.37808
G1 X65.83 Y126.135 E6.39257
G1 X65.38 Y126.547 E6.41286
G1 X65.044 Y126.829 E6.42745
G1 X64.556 Y127.203 E6.4479
G1 X64.2 Y127.452 E6.46235
G1 X63.692 Y127.776 E6.48239
G1 X63.315 Y127.994 E6.49687
G1 X62.768 Y128.279 E6.51739
G1 X62.371 Y128.464 E6.53195
G1 X61.814 Y128.695 E6.55201
G1 X61.403 Y128.845 E6.56656
G1 X60.807 Y129.033 E6.58735
G1 X60.387 Y129.145 E6.60181
G1 X59.783 Y129.277 E6.62237
G1 X59.352 Y129.352 E6.63692
G1 X58.777 Y129.428 E6.65621
G1 X58.342 Y129.467 E6.67074
G1 X57.717 Y129.495 E6.69155
G1 X57.283 Y129.495 E6.70598
G1 X56.658 Y129.467 E6.72679
G1 X56.223 Y129.428 E6.74131
G1 X55.632 Y129.35 E6.76114
G1 X55.201 Y129.274 E6.7757
G1 X54.617 Y129.145 E6.79559
G1 X54.196 Y129.033 E6.81008
G1 X53.61 Y128.849 E6.83051
G1 X53.199 Y128.7 E6.84505
G1 X52.629 Y128.464 E6.86557
G1 X52.234 Y128.28 E6.88006
G1 X51.691 Y127.998 E6.90041
G1 X51.315 Y127.781 E6.91485
G1 X50.802 Y127.454 E6.93509
G1 X50.446 Y127.205 E6.94953
G1 X49.958 Y126.831 E6.96998
G1 X49.622 Y126.549 E6.98457
G1 X49.172 Y126.137 E7.00487
G1 X48.864 Y125.829 E7.01935
G1 X48.451 Y125.378 E7.03969
G1 X48.17 Y125.043 E7.05424
G1 X47.799 Y124.559 E7.07452
G1 X47.549 Y124.202 E7.08902
G1 X47.219 Y123.684 E7.10944
G1 X47.001 Y123.306 E7.12396
G1 X46.71 Y122.744 E7.14501
G1 X46.528 Y122.35 E7.15944
G1 X46.312 Y121.829 E7.1782
G1 X46.161 Y121.418 E7.19276
G1 X45.968 Y120.808 E7.21404
G1 X45.856 Y120.388 E7.2285
G1 X45.727 Y119.802 E7.24846
G1 X45.651 Y119.372 E7.26298
G1 X45.571 Y118.765 E7.28334
G1 X45.533 Y118.331 E7.29783
G1 X45.506 Y117.752 E7.31711
G1 X45.504 Y117.316 E7.33161
G1 X45.53 Y116.676 E7.35292
G1 X45.568 Y116.24 E7.36748
G1 X45.649 Y115.63 E7.38794
G1 X45.725 Y115.2 E7.40247
G1 X45.854 Y114.614 E7.42242
G1 X45.966 Y114.194 E7.43688
G1 X46.159 Y113.584 E7.45816
G1 X46.31 Y113.173 E7.47272
G1 X46.526 Y112.652 E7.49148
G1 X46.708 Y112.258 E7.50592
G1 X46.999 Y111.696 E7.52697
G1 X47.217 Y111.318 E7.54148
G1 X47.547 Y110.8 E7.56191
G1 X47.797 Y110.443 E7.5764
G1 X48.168 Y109.959 E7.59669
G1 X48.449 Y109.624 E7.61123
G1 X48.862 Y109.173 E7.63157
G1 X49.17 Y108.865 E7.64606
G1 X49.62 Y108.453 E7.66635
G1 X49.956 Y108.171 E7.68094
G1 X50.444 Y107.797 E7.70139
G1 X50.8 Y107.548 E7.71584
G1 X51.308 Y107.224 E7.73588
G1 X51.685 Y107.006 E7.75036
G1 X52.253 Y106.712 E7.77163
G0 F6000 X52.42 Y107.075
G1 F1200 X52.816 Y106.892 E7.78614
G1 X53.309 Y106.688 E7.80389
G1 X53.72 Y106.537 E7.81845
G1 X54.295 Y106.355 E7.83851
G1 X54.715 Y106.243 E7.85297
G1 X55.267 Y106.121 E7.87177
G1 X55.697 Y106.045 E7.8863
G1 X56.273 Y105.969 E7.90562
G1 X56.709 Y105.931 E7.92018
G1 X57.252 Y105.906 E7.93826
G1 X57.686 Y105.904 E7.95269
G1 X58.289 Y105.929 E7.97276
G1 X58.725 Y105.967 E7.98732
G1 X59.301 Y106.043 E8.00664
G1 X59.731 Y106.119 E8.02117
G1 X60.283 Y106.241 E8.03997
G1 X60.703 Y106.353 E8.05443
G1 X61.278 Y106.535 E8.07449
G1 X61.689 Y106.686 E8.08905
G1 X62.181 Y106.889 E8.10675
G1 X62.575 Y107.071 E8.12119
G1 X63.109 Y107.348 E8.1412
G1 X63.488 Y107.567 E8.15576
G1 X63.969 Y107.874 E8.17473
G1 X64.325 Y108.123 E8.18918
G1 X64.784 Y108.474 E8.2084
G1 X65.119 Y108.755 E8.22295
G1 X65.544 Y109.145 E8.24213
G1 X65.852 Y109.453 E8.25662
G1 X66.24 Y109.877 E8.27573
G1 X66.522 Y110.213 E8.29032
G1 X66.875 Y110.673 E8.30961
G1 X67.124 Y111.029 E8.32406
G1 X67.43 Y111.508 E8.34296
G1 X67.648 Y111.885 E8.35745
G1 X67.925 Y112.42 E8.37749
G1 X68.108 Y112.816 E8.392
G1 X68.312 Y113.309 E8.40974
G1 X68.463 Y113.72 E8.4243
G1 X68.645 Y114.295 E8.44436
G1 X68.757 Y114.715 E8.45882
G1 X68.879 Y115.265 E8.47756
G1 X68.955 Y115.694 E8.49205
G1 X69.031 Y116.271 E8.51141
G1 X69.069 Y116.706 E8.52593
G1 X69.094 Y117.25 E8.54404
G1 X69.096 Y117.686 E8.55854
G1 X69.071 Y118.289 E8.57862
G1 X69.033 Y118.725 E8.59317
G1 X68.957 Y119.301 E8.6125
G1 X68.881 Y119.731 E8.62702
G1 X68.759 Y120.283 E8.64582
G1 X68.647 Y120.703 E8.66028
G1 X68.465 Y121.278 E8.68034
G1 X68.314 Y121.689 E8.6949
G1 X68.111 Y122.181 E8.71261
G1 X67.929 Y122.575 E8.72704
G1 X67.654 Y123.104 E8.74687
G1 X67.436 Y123.482 E8.76138
G1 X67.125 Y123.971 E8.78066
G1 X66.875 Y124.328 E8.79516
G1 X66.526 Y124.784 E8.81425
G1 X66.245 Y125.119 E8.8288
G1 X65.855 Y125.544 E8.84798
G1 X65.547 Y125.852 E8.86247
G1 X65.123 Y126.24 E8.88159
G1 X64.787 Y126.522 E8.89618
G1 X64.327 Y126.875 E8.91546
G1 X63.971 Y127.124 E8.92991
G1 X63.492 Y127.43 E8.94881
G1 X63.115 Y127.648 E8.9633
G1 X62.599 Y127.916 E8.98264
G1 X62.202 Y128.101 E8.99721
G1 X61.677 Y128.319 E9.01611
G1 X61.266 Y128.469 E9.03067
G1 X60.704 Y128.646 E9.05026
G1 X60.284 Y128.758 E9.06472
G1 X59.714 Y128.883 E9.08413
G1 X59.283 Y128.958 E9.09868
G1 X58.741 Y129.03 E9.11686
G1 X58.306 Y129.069 E9.13139
G1 X57.717 Y129.095 E9.151
G1 X57.283 Y129.095 E9.16543
G1 X56.694 Y129.069 E9.18504
G1 X56.259 Y129.03 E9.19957
G1 X55.702 Y128.956 E9.21826
G1 X55.271 Y128.88 E9.23282
G1 X54.72 Y128.758 E9.25159
G1 X54.299 Y128.646 E9.26608
G1 X53.747 Y128.473 E9.28532
G1 X53.336 Y128.324 E9.29986
