;FLAVOR:Marlin
;TIME:826
;Filament used: 0.493173m
;Layer height: 0.2
;MINX:20.46
;MINY:88.016
;MINZ:0.2
;MAXX:94.547
;MAXY:146.977
;MAXZ:2.4
;Generated with Cura_SteamEngine 4.8.0
M140 S50
M105
M190 S50
M104 S200
M105
M109 S200
M82 ;absolute extrusion mode
; Ender 3 Custom Start G-code
G92 E0 ; Reset Extruder
G28 ; Home all axes
G1 Z2.0 F3000 ; Move Z Axis up little to prevent scratching of Heat Bed
G1 X0.1 Y20 Z0.3 F5000.0 ; Move to start position
G1 X0.1 Y200.0 Z0.3 F1500.0 E15 ; Draw the first line
G1 X0.4 Y200.0 Z0.3 F5000.0 ; Move to side a little
G1 X0.4 Y20 Z0.3 F1500.0 E30 ; Draw the second line
G92 E0 ; Reset Extruder
G1 Z2.0 F3000 ; Move Z Axis up little to prevent scratching of Heat Bed
G1 X5 Y20 Z0.3 F5000.0 ; Move over to prevent blob squish
G92 E0
G92 E0
G1 F2700 E-5
;LAYER_COUNT:12
;LAYER:0
M107
G0 F6000 X25.849 Y88.396 Z0.2
;TYPE:SKIRT
G1 F2700 E0
G1 F1200 X26.611 Y88.191 E0.02625
G1 X27.391 Y88.064 E0.05253
G1 X28.179 Y88.016 E0.07879
G1 X28.968 Y88.049 E0.10505
G1 X29.75 Y88.161 E0.13133
G1 X30.272 Y88.282 E0.14915
G1 X35.102 Y89.576 E0.31546
G1 X35.853 Y89.818 E0.3417
G1 X36.576 Y90.136 E0.36797
G1 X37.263 Y90.525 E0.39423
G1 X37.908 Y90.981 E0.42051
G1 X38.598 Y91.595 E0.45123
G1 X57.5 Y110.497 E1.34032
G1 X76.402 Y91.595 E2.22941
G1 X76.988 Y91.065 E2.25569
G1 X77.624 Y90.598 E2.28193
G1 X78.304 Y90.197 E2.30819
G1 X79.022 Y89.867 E2.33447
G1 X79.898 Y89.576 E2.36517
G1 X84.728 Y88.282 E2.53149
G1 X85.501 Y88.116 E2.55778
G1 X86.286 Y88.03 E2.58405
G1 X87.075 Y88.023 E2.61029
G1 X87.862 Y88.096 E2.63658
G1 X88.636 Y88.248 E2.66281
G1 X89.392 Y88.478 E2.6891
G1 X90.12 Y88.783 E2.71535
G1 X90.814 Y89.16 E2.74162
G1 X91.466 Y89.606 E2.76789
G1 X92.07 Y90.115 E2.79416
G1 X92.619 Y90.682 E2.82041
G1 X93.108 Y91.302 E2.84668
G1 X93.532 Y91.968 E2.87293
G1 X93.886 Y92.674 E2.8992
G1 X94.167 Y93.412 E2.92547
G1 X94.372 Y94.175 E2.95175
G1 X94.499 Y94.954 E2.978
G1 X94.547 Y95.742 E3.00425
G1 X94.514 Y96.531 E3.03052
G1 X94.402 Y97.313 E3.0568
G1 X94.281 Y97.835 E3.07462
G1 X92.987 Y102.664 E3.2409
G1 X92.744 Y103.415 E3.26715
G1 X92.427 Y104.138 E3.29341
G1 X92.038 Y104.826 E3.31969
G1 X91.582 Y105.47 E3.34594
G1 X91.315 Y105.791 E3.35983
G1 X68.653 Y131.607 E4.50237
G1 X66.958 Y134.907 E4.62576
G1 X64.961 Y141.458 E4.85354
G1 X64.693 Y142.201 E4.87981
G1 X64.351 Y142.913 E4.90608
G1 X63.939 Y143.587 E4.93236
G1 X63.461 Y144.215 E4.95861
G1 X62.921 Y144.792 E4.98489
G1 X62.327 Y145.311 E5.01113
G1 X61.682 Y145.768 E5.03742
G1 X60.995 Y146.157 E5.06368
G1 X60.272 Y146.475 E5.08995
G1 X59.521 Y146.718 E5.1162
G1 X58.749 Y146.883 E5.14246
G1 X57.964 Y146.97 E5.16873
G1 X57.174 Y146.977 E5.195
G1 X56.388 Y146.904 E5.22126
G1 X55.613 Y146.752 E5.24753
G1 X54.857 Y146.523 E5.2738
G1 X54.129 Y146.218 E5.30005
G1 X53.435 Y145.841 E5.32632
G1 X52.783 Y145.396 E5.35258
G1 X52.179 Y144.887 E5.37885
G1 X51.629 Y144.32 E5.40512
G1 X51.14 Y143.7 E5.43138
G1 X50.716 Y143.034 E5.45764
G1 X50.362 Y142.328 E5.48391
G1 X50.039 Y141.458 E5.51478
G1 X48.042 Y134.907 E5.74256
G1 X46.347 Y131.607 E5.86595
G1 X23.685 Y105.791 E7.00849
G1 X23.195 Y105.172 E7.03475
G1 X22.77 Y104.506 E7.06103
G1 X22.414 Y103.801 E7.0873
G1 X22.132 Y103.064 E7.11354
G1 X22.013 Y102.664 E7.12742
G1 X20.719 Y97.835 E7.2937
G1 X20.553 Y97.063 E7.31996
G1 X20.467 Y96.278 E7.34623
G1 X20.46 Y95.488 E7.37251
G1 X20.533 Y94.702 E7.39876
G1 X20.685 Y93.927 E7.42503
G1 X20.915 Y93.171 E7.45131
G1 X21.22 Y92.443 E7.47756
G1 X21.597 Y91.749 E7.50383
G1 X22.042 Y91.097 E7.53009
G1 X22.551 Y90.493 E7.55636
G1 X23.119 Y89.944 E7.58263
G1 X23.739 Y89.455 E7.6089
G1 X24.405 Y89.031 E7.63516
G1 X25.111 Y88.677 E7.66142
G1 X25.849 Y88.396 E7.68769
G0 F6000 X26.259 Y88.69
G1 F1200 X27.01 Y88.521 E7.71329
G1 X27.774 Y88.432 E7.73887
G1 X28.543 Y88.422 E7.76445
G1 X29.309 Y88.492 E7.79004
G1 X30.168 Y88.668 E7.8192
G1 X34.998 Y89.962 E7.98551
G1 X35.73 Y90.199 E8.0111
G1 X36.433 Y90.512 E8.0367
G1 X37.099 Y90.895 E8.06225
G1 X37.723 Y91.345 E8.08784
G1 X38.316 Y91.877 E8.11434
G1 X57.5 Y111.061 E9.01669
G1 X76.684 Y91.877 E9.91905
G1 X77.256 Y91.363 E9.94463
G1 X77.878 Y90.91 E9.97022
G1 X78.543 Y90.524 E9.99579
G1 X79.245 Y90.209 E10.02139
G1 X80.002 Y89.962 E10.04787
G1 X84.832 Y88.668 E10.21418
G1 X85.584 Y88.508 E10.23975
G1 X86.349 Y88.427 E10.26534
G1 X87.118 Y88.425 E10.29092
G1 X87.883 Y88.504 E10.3165
G1 X88.636 Y88.661 E10.34208
G1 X89.369 Y88.896 E10.36768
G1 X90.073 Y89.206 E10.39327
G1 X90.741 Y89.586 E10.41883
G1 X91.366 Y90.035 E10.44442
G1 X91.941 Y90.545 E10.46999
G1 X92.46 Y91.113 E10.49558
G1 X92.918 Y91.731 E10.52116
G1 X93.308 Y92.394 E10.54674
G1 X93.628 Y93.094 E10.57234
G1 X93.873 Y93.823 E10.59792
G1 X94.042 Y94.573 E10.62349
G1 X94.131 Y95.337 E10.64908
G1 X94.141 Y96.106 E10.67466
G1 X94.071 Y96.872 E10.70024
G1 X93.895 Y97.731 E10.7294
G1 X92.601 Y102.56 E10.89568
G1 X92.363 Y103.292 E10.92128
G1 X92.051 Y103.995 E10.94687
G1 X91.668 Y104.662 E10.97245
G1 X91.014 Y105.527 E11.00851
G1 X68.323 Y131.376 E12.15251
G1 X66.584 Y134.763 E12.27915
G1 X64.578 Y141.342 E12.50791
G1 X64.316 Y142.065 E12.53349
G1 X63.98 Y142.757 E12.55907
G1 X63.575 Y143.41 E12.58463
G1 X63.103 Y144.018 E12.61023
G1 X62.571 Y144.573 E12.6358
G1 X61.984 Y145.071 E12.66141
G1 X61.349 Y145.504 E12.68697
G1 X60.672 Y145.87 E12.71257
G1 X59.961 Y146.163 E12.73814
G1 X59.223 Y146.381 E12.76374
G1 X58.467 Y146.521 E12.78931
G1 X57.7 Y146.581 E12.8149
G1 X56.931 Y146.562 E12.84048
G1 X56.169 Y146.463 E12.86604
G1 X55.42 Y146.286 E12.89164
G1 X54.694 Y146.031 E12.91723
G1 X53.999 Y145.703 E12.94279
G1 X53.341 Y145.305 E12.96837
G1 X52.728 Y144.84 E12.99396
G1 X52.167 Y144.314 E13.01954
G1 X51.663 Y143.733 E13.04512
G1 X51.222 Y143.102 E13.07072
G1 X50.85 Y142.429 E13.0963
G1 X50.549 Y141.722 E13.12186
G1 X50.422 Y141.342 E13.13518
G1 X48.416 Y134.763 E13.36395
G1 X46.677 Y131.376 E13.49058
G1 X23.986 Y105.527 E14.63458
G1 X23.509 Y104.923 E14.66018
G1 X23.098 Y104.273 E14.68576
G1 X22.756 Y103.584 E14.71134
G1 X22.399 Y102.56 E14.74741
G1 X21.105 Y97.731 E14.91369
G1 X20.945 Y96.979 E14.93926
G1 X20.864 Y96.214 E14.96485
G1 X20.862 Y95.445 E14.99042
G1 X20.941 Y94.68 E15.016
G1 X21.098 Y93.927 E15.04159
G1 X21.333 Y93.195 E15.06716
G1 X21.642 Y92.49 E15.09276
G1 X22.023 Y91.822 E15.11834
G1 X22.471 Y91.197 E15.14391
G1 X22.982 Y90.622 E15.1695
G1 X23.55 Y90.103 E15.19509
G1 X24.168 Y89.646 E15.22065
G1 X24.831 Y89.255 E15.24625
G1 X25.53 Y88.935 E15.27182
G1 X26.259 Y88.69 E15.2974
G0 F6000 X25.947 Y89.207
G1 F1200 X26.665 Y88.999 E15.32226
G1 X27.402 Y88.868 E15.34716
G1 X28.148 Y88.817 E15.37203
G1 X28.895 Y88.846 E15.3969
G1 X29.636 Y88.954 E15.4218
G1 X30.064 Y89.054 E15.43642
G1 X34.894 Y90.348 E15.60273
G1 X35.606 Y90.58 E15.62764
G1 X36.288 Y90.887 E15.65251
G1 X36.934 Y91.264 E15.67739
G1 X37.536 Y91.709 E15.70229
G1 X38.033 Y92.16 E15.72461
G1 X57.5 Y111.627 E16.64028
G1 X76.967 Y92.16 E17.55595
G1 X77.524 Y91.66 E17.58084
G1 X78.13 Y91.223 E17.60569
G1 X78.78 Y90.852 E17.63059
G1 X79.466 Y90.553 E17.65548
G1 X80.106 Y90.348 E17.67783
G1 X84.936 Y89.054 E17.84414
G1 X85.667 Y88.9 E17.86899
G1 X86.412 Y88.824 E17.89389
G1 X87.16 Y88.828 E17.91877
G1 X87.903 Y88.912 E17.94364
G1 X88.633 Y89.075 E17.96852
G1 X89.342 Y89.315 E17.99342
G1 X90.021 Y89.629 E18.0183
G1 X90.662 Y90.013 E18.04315
G1 X91.259 Y90.464 E18.06804
G1 X91.804 Y90.976 E18.09291
G1 X92.292 Y91.544 E18.11781
G1 X92.716 Y92.16 E18.14269
G1 X93.072 Y92.818 E18.16757
G1 X93.356 Y93.51 E18.19245
G1 X93.565 Y94.228 E18.21732
G1 X93.695 Y94.965 E18.24221
G1 X93.746 Y95.711 E18.26708
G1 X93.717 Y96.459 E18.29198
G1 X93.609 Y97.199 E18.31685
G1 X93.508 Y97.628 E18.33151
G1 X92.214 Y102.457 E18.49779
G1 X91.982 Y103.168 E18.52266
G1 X91.676 Y103.85 E18.54753
G1 X91.298 Y104.496 E18.57242
G1 X90.714 Y105.263 E18.60448
G1 X67.988 Y131.151 E19.75023
G1 X66.213 Y134.608 E19.87948
G1 X64.196 Y141.225 E20.10956
G1 X63.94 Y141.928 E20.13444
G1 X63.61 Y142.6 E20.15934
G1 X63.211 Y143.232 E20.1842
G1 X62.746 Y143.818 E20.20908
G1 X62.222 Y144.352 E20.23397
G1 X61.643 Y144.826 E20.25885
G1 X61.018 Y145.236 E20.28372
G1 X60.352 Y145.577 E20.3086
G1 X59.653 Y145.845 E20.3335
G1 X58.93 Y146.036 E20.35837
G1 X58.191 Y146.15 E20.38324
G1 X57.443 Y146.184 E20.40815
G1 X56.697 Y146.138 E20.43301
G1 X55.959 Y146.012 E20.45791
G1 X55.239 Y145.809 E20.48279
G1 X54.545 Y145.53 E20.50767
G1 X53.885 Y145.178 E20.53254
G1 X53.266 Y144.758 E20.55742
G1 X52.695 Y144.275 E20.5823
G1 X52.179 Y143.733 E20.60719
G1 X51.724 Y143.139 E20.63208
G1 X51.335 Y142.5 E20.65696
G1 X51.017 Y141.823 E20.68183
G1 X50.804 Y141.225 E20.70295
G1 X48.787 Y134.608 E20.93303
G1 X47.012 Y131.151 E21.06228
G1 X24.286 Y105.263 E22.20802
G1 X23.824 Y104.675 E22.23289
G1 X23.426 Y104.041 E22.25779
G1 X23.099 Y103.369 E22.28265
G1 X22.786 Y102.457 E22.31472
G1 X21.492 Y97.628 E22.481
G1 X21.337 Y96.896 E22.50588
G1 X21.261 Y96.152 E22.53076
G1 X21.265 Y95.404 E22.55564
G1 X21.349 Y94.66 E22.58054
G1 X21.512 Y93.93 E22.60542
G1 X21.752 Y93.222 E22.63028
G1 X22.066 Y92.543 E22.65516
G1 X22.45 Y91.901 E22.68004
G1 X22.901 Y91.304 E22.70493
G1 X23.413 Y90.759 E22.7298
G1 X23.98 Y90.271 E22.75468
G1 X24.597 Y89.847 E22.77958
G1 X25.254 Y89.491 E22.80444
G1 X25.947 Y89.207 E22.82935
G0 F6000 X26.359 Y89.494
G1 F1200 X27.065 Y89.324 E22.8535
G1 X27.786 Y89.233 E22.87767
G1 X28.512 Y89.221 E22.90182
G1 X29.235 Y89.289 E22.92597
G1 X29.961 Y89.441 E22.95064
G1 X34.791 Y90.735 E23.11695
G1 X35.481 Y90.961 E23.1411
G1 X36.142 Y91.262 E23.16526
G1 X36.766 Y91.633 E23.18941
G1 X37.346 Y92.071 E23.21358
G1 X37.75 Y92.443 E23.23185
G1 X57.5 Y112.193 E24.16083
G1 X77.25 Y92.443 E25.0898
G1 X77.791 Y91.959 E25.11395
G1 X78.382 Y91.536 E25.13812
G1 X79.016 Y91.182 E25.16227
G1 X79.685 Y90.899 E25.18643
G1 X80.209 Y90.735 E25.20469
G1 X85.039 Y89.441 E25.37101
G1 X85.75 Y89.292 E25.39517
G1 X86.473 Y89.222 E25.41933
G1 X87.199 Y89.232 E25.44348
G1 X87.92 Y89.321 E25.46764
G1 X88.627 Y89.489 E25.49181
G1 X89.31 Y89.734 E25.51594
G1 X89.963 Y90.053 E25.54011
G1 X90.577 Y90.441 E25.56427
G1 X91.145 Y90.894 E25.58844
G1 X91.659 Y91.408 E25.61261
G1 X92.113 Y91.974 E25.63675
G1 X92.503 Y92.587 E25.66091
G1 X92.823 Y93.239 E25.68507
G1 X93.069 Y93.922 E25.70921
G1 X93.239 Y94.629 E25.7334
G1 X93.33 Y95.349 E25.75754
G1 X93.342 Y96.075 E25.78169
G1 X93.273 Y96.799 E25.80588
G1 X93.122 Y97.524 E25.83051
G1 X91.828 Y102.353 E25.99679
G1 X91.602 Y103.043 E26.02094
G1 X91.301 Y103.705 E26.04512
G1 X90.929 Y104.329 E26.06929
G1 X90.413 Y104.999 E26.09741
G1 X67.655 Y130.924 E27.24478
G1 X65.84 Y134.458 E27.37692
G1 X63.813 Y141.108 E27.60815
G1 X63.563 Y141.791 E27.63234
G1 X63.24 Y142.441 E27.65648
G1 X62.848 Y143.052 E27.68062
G1 X62.39 Y143.616 E27.70479
G1 X61.874 Y144.127 E27.72894
G1 X61.304 Y144.578 E27.75312
G1 X60.688 Y144.963 E27.77728
G1 X60.034 Y145.278 E27.80142
G1 X59.349 Y145.52 E27.82558
G1 X58.641 Y145.685 E27.84976
G1 X57.92 Y145.771 E27.87391
G1 X57.194 Y145.777 E27.89806
G1 X56.471 Y145.703 E27.92223
G1 X55.761 Y145.551 E27.94638
G1 X55.072 Y145.321 E27.97054
G1 X54.412 Y145.017 E27.99471
G1 X53.79 Y144.642 E28.01887
G1 X53.213 Y144.202 E28.043
G1 X52.687 Y143.7 E28.06719
G1 X52.22 Y143.144 E28.09134
G1 X51.817 Y142.54 E28.11549
G1 X51.482 Y141.895 E28.13966
G1 X51.187 Y141.108 E28.16761
G1 X49.16 Y134.458 E28.39884
G1 X47.345 Y130.924 E28.53098
G1 X24.587 Y104.999 E29.67835
G1 X24.139 Y104.428 E29.70249
G1 X23.756 Y103.81 E29.72667
G1 X23.443 Y103.155 E29.75081
G1 X23.172 Y102.353 E29.77897
G1 X21.878 Y97.524 E29.94525
G1 X21.729 Y96.813 E29.96941
G1 X21.659 Y96.09 E29.99357
G1 X21.668 Y95.364 E30.01772
G1 X21.758 Y94.643 E30.04189
G1 X21.926 Y93.937 E30.06602
G1 X22.171 Y93.253 E30.09019
G1 X22.49 Y92.6 E30.11436
G1 X22.878 Y91.986 E30.13852
G1 X23.331 Y91.419 E30.16266
G1 X23.844 Y90.904 E30.18683
G1 X24.411 Y90.45 E30.21099
G1 X25.024 Y90.06 E30.23516
G1 X25.676 Y89.74 E30.25931
G1 X26.359 Y89.494 E30.28346
G0 F6000 X26.094 Y90.004
G1 F1200 X26.767 Y89.797 E30.30688
G1 X27.459 Y89.667 E30.3303
G1 X28.161 Y89.617 E30.3537
G1 X28.864 Y89.646 E30.37711
G1 X29.857 Y89.827 E30.41068
G1 X34.687 Y91.121 E30.57699
G1 X35.356 Y91.342 E30.60042
G1 X35.995 Y91.637 E30.62383
G1 X36.597 Y92.002 E30.64725
G1 X37.153 Y92.433 E30.67065
G1 X37.467 Y92.726 E30.68493
G1 X57.5 Y112.759 E31.62722
G1 X77.533 Y92.726 E32.56951
G1 X78.058 Y92.257 E32.59293
G1 X78.633 Y91.851 E32.61634
G1 X79.251 Y91.513 E32.63977
G1 X79.902 Y91.246 E32.66317
G1 X80.313 Y91.121 E32.67746
G1 X85.143 Y89.827 E32.84377
G1 X85.832 Y89.684 E32.86717
G1 X86.533 Y89.62 E32.89059
G1 X87.237 Y89.635 E32.91401
G1 X87.934 Y89.731 E32.93741
G1 X88.616 Y89.905 E32.96082
G1 X89.274 Y90.155 E32.98423
G1 X89.9 Y90.478 E33.00766
G1 X90.485 Y90.869 E33.03106
G1 X91.021 Y91.325 E33.05447
G1 X91.503 Y91.839 E33.0779
G1 X91.923 Y92.403 E33.10129
G1 X92.277 Y93.012 E33.12472
G1 X92.559 Y93.657 E33.14813
G1 X92.766 Y94.33 E33.17155
G1 X92.896 Y95.022 E33.19497
G1 X92.946 Y95.724 E33.21838
G1 X92.917 Y96.427 E33.24178
G1 X92.736 Y97.421 E33.27539
G1 X91.442 Y102.25 E33.44167
G1 X91.221 Y102.918 E33.46507
G1 X90.926 Y103.558 E33.48851
G1 X90.561 Y104.159 E33.51189
G1 X90.112 Y104.735 E33.53618
G1 X67.323 Y130.695 E34.68511
G1 X65.47 Y134.304 E34.82004
G1 X63.431 Y140.992 E35.05259
G1 X63.187 Y141.653 E35.07603
G1 X62.871 Y142.281 E35.09941
G1 X62.485 Y142.87 E35.12283
G1 X62.035 Y143.412 E35.14626
G1 X61.527 Y143.898 E35.16965
G1 X60.966 Y144.325 E35.1931
G1 X60.361 Y144.684 E35.21649
G1 X59.719 Y144.973 E35.23991
G1 X59.049 Y145.187 E35.26331
G1 X58.358 Y145.324 E35.28674
G1 X57.656 Y145.382 E35.31016
G1 X56.953 Y145.36 E35.33356
G1 X56.256 Y145.258 E35.35699
G1 X55.576 Y145.078 E35.38038
G1 X54.92 Y144.822 E35.4038
G1 X54.297 Y144.493 E35.42724
G1 X53.716 Y144.096 E35.45064
G1 X53.184 Y143.635 E35.47405
G1 X52.707 Y143.117 E35.49747
G1 X52.292 Y142.548 E35.5209
G1 X51.944 Y141.936 E35.54431
G1 X51.569 Y140.992 E35.5781
G1 X49.53 Y134.304 E35.81065
G1 X47.677 Y130.695 E35.94558
G1 X24.888 Y104.735 E37.09451
G1 X24.454 Y104.181 E37.11792
G1 X24.086 Y103.58 E37.14135
G1 X23.788 Y102.942 E37.16478
G1 X23.558 Y102.25 E37.18903
G1 X22.264 Y97.421 E37.35531
G1 X22.121 Y96.732 E37.37871
G1 X22.057 Y96.03 E37.40216
G1 X22.072 Y95.327 E37.42555
G1 X22.168 Y94.629 E37.44898
G1 X22.341 Y93.947 E37.47238
G1 X22.591 Y93.289 E37.49579
G1 X22.914 Y92.663 E37.51922
G1 X23.306 Y92.078 E37.54264
G1 X23.762 Y91.542 E37.56605
G1 X24.275 Y91.06 E37.58946
G1 X24.84 Y90.64 E37.61288
G1 X25.449 Y90.286 E37.63631
G1 X26.094 Y90.004 E37.65972
G0 F6000 X26.508 Y90.285
G1 F1200 X27.168 Y90.118 E37.68236
G1 X27.843 Y90.03 E37.705
G1 X28.524 Y90.022 E37.72766
G1 X29.201 Y90.094 E37.7503
G1 X29.754 Y90.214 E37.76912
G1 X34.584 Y91.508 E37.93543
G1 X35.23 Y91.722 E37.95807
G1 X35.847 Y92.011 E37.98073
G1 X36.425 Y92.37 E38.00336
G1 X37.184 Y93.009 E38.03636
G1 X57.5 Y113.325 E38.99196
G1 X77.816 Y93.009 E39.94756
G1 X78.325 Y92.556 E39.97023
G1 X78.883 Y92.167 E39.99285
G1 X79.483 Y91.845 E40.0155
G1 X80.416 Y91.508 E40.04849
G1 X85.246 Y90.214 E40.2148
G1 X85.913 Y90.076 E40.23746
G1 X86.591 Y90.018 E40.26009
G1 X87.272 Y90.04 E40.28275
G1 X87.945 Y90.141 E40.30539
G1 X88.602 Y90.321 E40.32805
G1 X89.233 Y90.576 E40.35068
G1 X89.83 Y90.903 E40.37332
G1 X90.385 Y91.299 E40.396
G1 X90.889 Y91.756 E40.41863
G1 X91.336 Y92.269 E40.44126
G1 X91.72 Y92.832 E40.46392
G1 X92.036 Y93.435 E40.48657
G1 X92.278 Y94.071 E40.5092
G1 X92.445 Y94.731 E40.53184
G1 X92.533 Y95.407 E40.55452
G1 X92.541 Y96.087 E40.57713
G1 X92.469 Y96.765 E40.59981
G1 X92.349 Y97.317 E40.6186
G1 X91.055 Y102.146 E40.78488
G1 X90.841 Y102.792 E40.80751
G1 X90.552 Y103.409 E40.83018
G1 X90.193 Y103.988 E40.85283
G1 X89.812 Y104.471 E40.8733
G1 X66.988 Y130.471 E42.02399
G1 X65.097 Y134.154 E42.16169
G1 X63.048 Y140.875 E42.39539
G1 X62.812 Y141.514 E42.41804
G1 X62.502 Y142.12 E42.44068
G1 X62.123 Y142.686 E42.46334
G1 X61.681 Y143.204 E42.48599
G1 X61.181 Y143.666 E42.50863
G1 X60.631 Y144.067 E42.53127
G1 X60.037 Y144.4 E42.55392
G1 X59.408 Y144.661 E42.57657
