;FLAVOR:Marlin
;TIME:4544
;Filament used: 2.70741m
;Layer height: 0.2
;MINX:6.7
;MINY:45.796
;MINZ:0.2
;MAXX:108.3
;MAXY:196.582
;MAXZ:12.4
;Generated with Cura_SteamEngine 4.8.0
M140 S50
M105
M190 S50
M104 S200
M105
M109 S200
M82 ;absolute extrusion mode
; Ender 3 Custom Start G-code
G92 E0 ; Reset Extruder
G28 ; Home all axes
G1 Z2.0 F3000 ; Move Z Axis up little to prevent scratching of Heat Bed
G1 X0.1 Y20 Z0.3 F5000.0 ; Move to start position
G1 X0.1 Y200.0 Z0.3 F1500.0 E15 ; Draw the first line
G1 X0.4 Y200.0 Z0.3 F5000.0 ; Move to side a little
G1 X0.4 Y20 Z0.3 F1500.0 E30 ; Draw the second line
G92 E0 ; Reset Extruder
G1 Z2.0 F3000 ; Move Z Axis up little to prevent scratching of Heat Bed
G1 X5 Y20 Z0.3 F5000.0 ; Move over to prevent blob squish
G92 E0
G92 E0
G1 F2700 E-5
;LAYER_COUNT:62
;LAYER:0
M107
G0 F6000 X48.908 Y49.632 Z0.2
;TYPE:SKIRT
G1 F2700 E0
G1 F1200 X49.529 Y49.03 E0.02877
G1 X50.23 Y48.407 E0.05996
G1 X51.231 Y47.681 E0.10109
G1 X51.424 Y47.557 E0.10872
G1 X52.234 Y47.085 E0.1399
G1 X53.081 Y46.682 E0.1711
G1 X53.96 Y46.354 E0.2023
G1 X54.863 Y46.101 E0.23349
G1 X55.784 Y45.927 E0.26467
G1 X56.506 Y45.846 E0.28883
G1 X56.709 Y45.83 E0.2956
G1 X57.646 Y45.796 E0.32679
G1 X58.583 Y45.842 E0.35799
G1 X59.512 Y45.968 E0.38917
G1 X60.427 Y46.173 E0.42036
G1 X61.322 Y46.455 E0.45157
G1 X62.53 Y46.976 E0.49533
G1 X62.736 Y47.08 E0.503
G1 X63.555 Y47.538 E0.53421
G1 X64.331 Y48.064 E0.56539
G1 X65.059 Y48.653 E0.59654
G1 X65.221 Y48.796 E0.60372
G1 X65.639 Y49.186 E0.62274
G1 X65.916 Y49.458 E0.63565
G1 X75.998 Y59.538 E1.10983
G1 X77.889 Y61.376 E1.19754
G1 X79.735 Y63.073 E1.28094
G1 X81.597 Y64.687 E1.3629
G1 X83.595 Y66.324 E1.44881
G1 X85.57 Y67.85 E1.53182
G1 X87.602 Y69.331 E1.61545
G1 X89.691 Y70.764 E1.69971
G1 X91.802 Y72.128 E1.7833
G1 X93.937 Y73.421 E1.86632
G1 X96.119 Y74.66 E1.94978
G1 X98.374 Y75.859 E2.03472
G1 X100.874 Y77.094 E2.12746
G1 X101.887 Y77.576 E2.16477
G1 X102.716 Y78.014 E2.19596
G1 X103.505 Y78.522 E2.22717
G1 X104.248 Y79.094 E2.25836
G1 X104.939 Y79.728 E2.28955
G1 X105.573 Y80.419 E2.32074
G1 X106.147 Y81.161 E2.35194
G1 X106.655 Y81.949 E2.38312
G1 X107.021 Y82.628 E2.40878
G1 X107.127 Y82.842 E2.41672
G1 X107.507 Y83.699 E2.4479
G1 X107.813 Y84.586 E2.47911
G1 X108.042 Y85.495 E2.51029
G1 X108.193 Y86.421 E2.54149
G1 X108.267 Y87.477 E2.5767
G1 X108.298 Y88.86 E2.62271
G1 X108.3 Y89.23 E2.63502
G1 X108.291 Y90.038 E2.6619
G1 X108.224 Y91.138 E2.69855
G1 X108.207 Y91.29 E2.70364
G1 X108.108 Y91.976 E2.72669
G1 X108.062 Y92.237 E2.7355
G1 X107.86 Y93.153 E2.7667
G1 X107.581 Y94.048 E2.79788
G1 X107.097 Y95.188 E2.83908
G1 X106.998 Y95.389 E2.84653
G1 X106.548 Y96.212 E2.87773
G1 X106.21 Y96.738 E2.89852
G1 X106.024 Y97.01 E2.90948
G1 X105.462 Y97.761 E2.94068
G1 X104.517 Y98.779 E2.98688
G1 X103.663 Y99.588 E3.026
G1 X102.778 Y100.406 E3.06609
G1 X100.95 Y102.193 E3.15111
G1 X99.2 Y104 E3.23478
G1 X97.509 Y105.851 E3.31816
G1 X95.864 Y107.757 E3.4019
G1 X94.285 Y109.694 E3.48502
G1 X92.734 Y111.711 E3.56965
G1 X91.261 Y113.743 E3.65312
G1 X89.841 Y115.823 E3.73689
G1 X88.495 Y117.922 E3.81982
G1 X87.176 Y120.11 E3.9048
G1 X85.952 Y122.276 E3.98754
G1 X84.774 Y124.507 E4.07146
G1 X83.66 Y126.771 E4.15538
G1 X82.606 Y129.073 E4.23959
G1 X81.623 Y131.393 E4.32339
G1 X81.018 Y132.917 E4.37793
G1 X80.806 Y133.467 E4.39753
G1 X79.6 Y136.771 E4.51452
G1 X79.057 Y138.352 E4.57012
G1 X78.252 Y140.805 E4.65598
G1 X77.529 Y143.239 E4.74043
G1 X76.882 Y145.663 E4.82388
G1 X76.305 Y148.098 E4.90711
G1 X75.792 Y150.586 E4.9916
G1 X75.352 Y153.066 E5.07538
G1 X74.985 Y155.537 E5.15846
G1 X74.687 Y158.027 E5.24187
G1 X74.455 Y160.581 E5.32717
G1 X74.329 Y162.492 E5.39087
G1 X73.317 Y180.954 E6.00584
G1 X73.259 Y181.792 E6.03378
G1 X73.198 Y182.414 E6.05456
G1 X73.137 Y182.892 E6.07059
G1 X73.088 Y183.23 E6.08195
G1 X73.031 Y183.588 E6.09401
G1 X72.789 Y184.722 E6.13257
G1 X72.684 Y185.093 E6.1454
G1 X72.624 Y185.294 E6.15237
G1 X72.528 Y185.6 E6.16304
G1 X72.372 Y186.072 E6.17957
G1 X72.04 Y186.949 E6.21076
G1 X71.772 Y187.528 E6.23198
G1 X71.592 Y187.889 E6.2454
G1 X71.458 Y188.149 E6.25513
G1 X71.268 Y188.506 E6.26858
G1 X70.793 Y189.314 E6.29975
G1 X70.449 Y189.815 E6.31997
G1 X70.221 Y190.128 E6.33285
G1 X70.037 Y190.373 E6.34304
G1 X69.783 Y190.702 E6.35686
G1 X69.179 Y191.419 E6.38804
G1 X68.753 Y191.858 E6.40839
G1 X68.478 Y192.126 E6.42116
G1 X68.247 Y192.345 E6.43175
G1 X67.936 Y192.631 E6.4458
G1 X67.02 Y193.386 E6.48528
G1 X66.65 Y193.651 E6.50042
G1 X66.44 Y193.795 E6.50889
G1 X66.221 Y193.941 E6.51764
G1 X65.814 Y194.206 E6.5338
G1 X65.007 Y194.684 E6.56499
G1 X64.447 Y194.964 E6.58582
G1 X64.122 Y195.115 E6.59774
G1 X63.844 Y195.239 E6.60786
G1 X63.436 Y195.415 E6.62264
G1 X62.56 Y195.75 E6.65383
G1 X61.969 Y195.929 E6.67437
G1 X61.587 Y196.033 E6.68754
G1 X61.325 Y196.1 E6.69653
G1 X60.943 Y196.194 E6.70962
G1 X60.024 Y196.379 E6.7408
G1 X59.439 Y196.455 E6.76042
G1 X59.069 Y196.493 E6.77279
G1 X58.713 Y196.524 E6.78467
G1 X58.256 Y196.556 E6.79991
G1 X57.319 Y196.582 E6.83109
G1 X56.72 Y196.556 E6.85103
G1 X56.363 Y196.531 E6.86293
G1 X56.046 Y196.504 E6.87351
G1 X55.602 Y196.46 E6.88835
G1 X54.674 Y196.328 E6.91953
G1 X54.052 Y196.194 E6.94069
G1 X53.671 Y196.1 E6.95374
G1 X53.419 Y196.034 E6.96241
G1 X53.033 Y195.929 E6.97571
G1 X52.139 Y195.645 E7.00691
G1 X51.594 Y195.429 E7.02641
G1 X51.255 Y195.284 E7.03867
G1 X50.929 Y195.138 E7.05056
G1 X50.524 Y194.949 E7.06542
G1 X49.692 Y194.517 E7.0966
G1 X49.18 Y194.203 E7.11658
G1 X48.837 Y193.98 E7.13018
G1 X48.591 Y193.816 E7.14002
G1 X48.279 Y193.601 E7.15262
G1 X47.375 Y192.906 E7.19055
G1 X46.998 Y192.572 E7.2073
G1 X46.772 Y192.363 E7.21754
G1 X46.564 Y192.166 E7.22707
G1 X46.254 Y191.864 E7.24146
G1 X45.611 Y191.182 E7.27264
G1 X45.264 Y190.76 E7.29081
G1 X45.031 Y190.462 E7.30339
G1 X44.818 Y190.181 E7.31512
G1 X44.562 Y189.831 E7.32954
G1 X44.042 Y189.051 E7.36072
G1 X43.735 Y188.513 E7.38132
G1 X43.543 Y188.153 E7.39489
G1 X43.373 Y187.821 E7.4073
G1 X43.193 Y187.454 E7.42089
G1 X42.816 Y186.595 E7.45209
G1 X42.637 Y186.098 E7.46966
G1 X42.526 Y185.766 E7.48131
G1 X42.42 Y185.432 E7.49296
G1 X42.291 Y185.001 E7.50792
G1 X42.029 Y183.937 E7.54437
G1 X41.941 Y183.43 E7.56148
G1 X41.9 Y183.159 E7.5706
G1 X41.863 Y182.893 E7.57953
G1 X41.805 Y182.434 E7.59492
G1 X41.745 Y181.819 E7.61547
G1 X41.685 Y180.94 E7.64478
G1 X40.68 Y162.637 E8.25445
G1 X40.496 Y159.968 E8.34344
G1 X40.249 Y157.446 E8.42772
G1 X39.94 Y154.995 E8.50989
G1 X39.547 Y152.467 E8.59498
G1 X39.095 Y150.011 E8.67804
G1 X38.576 Y147.579 E8.76075
G1 X37.967 Y145.075 E8.84646
G1 X37.312 Y142.681 E8.92901
G1 X36.57 Y140.242 E9.0138
G1 X35.941 Y138.346 E9.08024
G1 X35.387 Y136.735 E9.1369
G1 X34.209 Y133.502 E9.25135
G1 X34.02 Y133.014 E9.26875
G1 X33.068 Y130.647 E9.35361
G1 X32.051 Y128.306 E9.4385
G1 X30.974 Y126.012 E9.52279
G1 X29.858 Y123.798 E9.60526
G1 X28.652 Y121.563 E9.68972
G1 X27.395 Y119.386 E9.77333
G1 X26.076 Y117.245 E9.85697
G1 X24.714 Y115.165 E9.93967
G1 X23.262 Y113.08 E10.02417
G1 X21.747 Y111.031 E10.10893
G1 X20.217 Y109.08 E10.19139
G1 X18.603 Y107.136 E10.27543
G1 X16.933 Y105.239 E10.35949
G1 X15.229 Y103.407 E10.44271
G1 X13.468 Y101.619 E10.52618
G1 X11.611 Y99.84 E10.61171
G1 X10.756 Y99.055 E10.65031
G1 X10.093 Y98.392 E10.6815
G1 X9.707 Y97.949 E10.70104
G1 X9.406 Y97.584 E10.71678
G1 X8.841 Y96.836 E10.74796
G1 X8.342 Y96.042 E10.77915
G1 X7.912 Y95.209 E10.81033
G1 X7.606 Y94.482 E10.83656
G1 X7.456 Y94.086 E10.85064
G1 X7.162 Y93.196 E10.88182
G1 X6.944 Y92.284 E10.91301
G1 X6.77 Y90.966 E10.95722
G1 X6.736 Y90.485 E10.97326
G1 X6.717 Y90.119 E10.98545
G1 X6.705 Y89.687 E10.99983
G1 X6.7 Y89.2 E11.01602
G1 X6.7 Y88.367 E11.04373
G1 X6.71 Y87.698 E11.06598
G1 X6.764 Y86.761 E11.0972
G1 X6.863 Y86.029 E11.12177
G1 X6.875 Y85.958 E11.12416
G1 X7.094 Y84.951 E11.15844
G1 X7.152 Y84.734 E11.16591
G1 X7.433 Y83.839 E11.19711
G1 X7.788 Y82.971 E11.2283
G1 X8.217 Y82.137 E11.2595
G1 X8.715 Y81.342 E11.2907
G1 X9.279 Y80.592 E11.32191
G1 X9.904 Y79.894 E11.35307
G1 X10.643 Y79.202 E11.38674
G1 X10.792 Y79.075 E11.39325
G1 X11.532 Y78.498 E11.42446
G1 X12.317 Y77.986 E11.45564
G1 X13.167 Y77.531 E11.4877
G1 X14.539 Y76.874 E11.5383
G1 X16.832 Y75.734 E11.62347
G1 X19.015 Y74.57 E11.70575
G1 X21.239 Y73.301 E11.79092
G1 X23.359 Y72.011 E11.87346
G1 X25.462 Y70.649 E11.95679
G1 X27.564 Y69.2 E12.04171
G1 X29.592 Y67.718 E12.12525
G1 X31.576 Y66.18 E12.20874
G1 X33.504 Y64.596 E12.29173
G1 X35.429 Y62.919 E12.37665
G1 X37.27 Y61.224 E12.45988
G1 X39.006 Y59.533 E12.54049
G1 X48.908 Y49.632 E13.00622
G0 F6000 X49.191 Y49.915
G1 F1200 X49.807 Y49.318 E13.03475
G1 X50.496 Y48.707 E13.06538
G1 X51.447 Y48.018 E13.10444
G1 X51.64 Y47.894 E13.11207
G1 X52.436 Y47.43 E13.14272
G1 X53.268 Y47.038 E13.17331
G1 X54.132 Y46.719 E13.20394
G1 X55.02 Y46.476 E13.23456
G1 X55.926 Y46.311 E13.26519
G1 X56.537 Y46.245 E13.28563
G1 X56.74 Y46.229 E13.2924
G1 X57.66 Y46.196 E13.32302
G1 X58.58 Y46.244 E13.35366
G1 X59.491 Y46.371 E13.38426
G1 X60.389 Y46.577 E13.4149
G1 X61.265 Y46.86 E13.44552
G1 X62.35 Y47.334 E13.4849
G1 X62.556 Y47.438 E13.49257
G1 X63.359 Y47.888 E13.52319
G1 X64.12 Y48.406 E13.55381
G1 X64.794 Y48.953 E13.58268
G1 X64.956 Y49.096 E13.58986
G1 X65.359 Y49.472 E13.6082
G1 X65.634 Y49.741 E13.62099
G1 X75.719 Y59.824 E14.09531
G1 X77.623 Y61.676 E14.18366
G1 X79.466 Y63.369 E14.26689
G1 X81.368 Y65.017 E14.3506
G1 X83.32 Y66.617 E14.43454
G1 X85.335 Y68.174 E14.51924
G1 X87.369 Y69.657 E14.60296
G1 X89.47 Y71.097 E14.68768
G1 X91.584 Y72.463 E14.77139
G1 X93.739 Y73.768 E14.85519
G1 X95.955 Y75.027 E14.93996
G1 X98.174 Y76.206 E15.02353
G1 X100.652 Y77.431 E15.11547
G1 X101.716 Y77.937 E15.15466
G1 X102.529 Y78.368 E15.18526
G1 X103.302 Y78.868 E15.21588
G1 X104.029 Y79.433 E15.24651
G1 X104.704 Y80.059 E15.27712
G1 X105.322 Y80.742 E15.30776
G1 X105.878 Y81.475 E15.33836
G1 X106.369 Y82.254 E15.36899
G1 X106.663 Y82.805 E15.38976
G1 X106.769 Y83.019 E15.3977
G1 X107.141 Y83.861 E15.42832
G1 X107.439 Y84.732 E15.45894
G1 X107.66 Y85.626 E15.48957
G1 X107.803 Y86.535 E15.52017
G1 X107.867 Y87.486 E15.55187
G1 X107.898 Y88.869 E15.59788
G1 X107.9 Y89.225 E15.60972
G1 X107.891 Y90.033 E15.6366
G1 X107.826 Y91.093 E15.67192
G1 X107.809 Y91.245 E15.67701
G1 X107.714 Y91.907 E15.69925
G1 X107.668 Y92.168 E15.70807
G1 X107.469 Y93.067 E15.73869
G1 X107.193 Y93.945 E15.7693
G1 X106.738 Y95.012 E15.80788
G1 X106.639 Y95.213 E15.81534
G1 X106.197 Y96.02 E15.84594
G1 X105.88 Y96.512 E15.86541
G1 X105.694 Y96.784 E15.87637
G1 X105.142 Y97.521 E15.90699
G1 X104.241 Y98.489 E15.95098
G1 X103.392 Y99.295 E15.98991
G1 X102.473 Y100.144 E16.03153
G1 X100.683 Y101.894 E16.11479
G1 X98.917 Y103.718 E16.19923
G1 X97.213 Y105.584 E16.28328
G1 X95.535 Y107.527 E16.36866
G1 X93.973 Y109.443 E16.45088
G1 X92.409 Y111.478 E16.53625
G1 X90.94 Y113.505 E16.61951
G1 X89.518 Y115.587 E16.70337
G1 X88.133 Y117.746 E16.78868
G1 X86.852 Y119.871 E16.87121
G1 X85.593 Y122.1 E16.95635
G1 X84.412 Y124.336 E17.04046
G1 X83.295 Y126.606 E17.12461
G1 X82.251 Y128.887 E17.20804
G1 X81.242 Y131.267 E17.29402
G1 X80.645 Y132.773 E17.3479
G1 X80.424 Y133.345 E17.3683
G1 X79.231 Y136.615 E17.48407
G1 X78.671 Y138.245 E17.54139
G1 X77.864 Y140.703 E17.62744
G1 X77.154 Y143.094 E17.7104
G1 X76.493 Y145.573 E17.79573
G1 X75.91 Y148.03 E17.87972
G1 X75.4 Y150.507 E17.96383
G1 X74.962 Y152.974 E18.04717
G1 X74.587 Y155.498 E18.13204
G1 X74.286 Y158.015 E18.21635
G1 X74.058 Y160.518 E18.29995
G1 X73.925 Y162.534 E18.36714
G1 X72.907 Y181.094 E18.98538
G1 X72.86 Y181.764 E19.00772
G1 X72.801 Y182.364 E19.02777
G1 X72.74 Y182.842 E19.0438
G1 X72.693 Y183.167 E19.05472
G1 X72.636 Y183.525 E19.06678
G1 X72.402 Y184.618 E19.10396
G1 X72.301 Y184.979 E19.11642
G1 X72.241 Y185.18 E19.1234
G1 X72.149 Y185.474 E19.13365
G1 X71.993 Y185.946 E19.15018
G1 X71.666 Y186.807 E19.18081
G1 X71.414 Y187.35 E19.20072
G1 X71.234 Y187.711 E19.21414
G1 X71.105 Y187.961 E19.2235
G1 X70.915 Y188.318 E19.23695
G1 X70.448 Y189.111 E19.26756
G1 X70.126 Y189.579 E19.28645
G1 X69.898 Y189.892 E19.29933
G1 X69.72 Y190.129 E19.30919
G1 X69.466 Y190.458 E19.32301
G1 X68.873 Y191.161 E19.3536
G1 X68.474 Y191.571 E19.37263
G1 X68.199 Y191.839 E19.3854
G1 X67.976 Y192.05 E19.39561
G1 X67.665 Y192.336 E19.40967
G1 X66.783 Y193.064 E19.4477
G1 X66.424 Y193.321 E19.46239
G1 X66.214 Y193.465 E19.47086
G1 X66.003 Y193.606 E19.4793
G1 X65.596 Y193.871 E19.49545
G1 X64.803 Y194.339 E19.52608
G1 X64.278 Y194.601 E19.54559
G1 X63.953 Y194.752 E19.55751
G1 X63.686 Y194.872 E19.56725
G1 X63.278 Y195.048 E19.58203
G1 X62.417 Y195.376 E19.61267
G1 X61.864 Y195.543 E19.63188
G1 X61.482 Y195.647 E19.64505
G1 X61.23 Y195.712 E19.65371
G1 X60.848 Y195.806 E19.66679
G1 X59.945 Y195.987 E19.69742
G1 X59.398 Y196.058 E19.71577
G1 X59.028 Y196.096 E19.72814
G1 X58.685 Y196.125 E19.73959
G1 X58.228 Y196.157 E19.75483
G1 X57.308 Y196.181 E19.78544
G1 X56.748 Y196.157 E19.80408
G1 X56.391 Y196.132 E19.81598
G1 X56.086 Y196.106 E19.82616
G1 X55.642 Y196.062 E19.841
G1 X54.73 Y195.932 E19.87164
G1 X54.148 Y195.805 E19.89146
G1 X53.767 Y195.711 E19.90451
G1 X53.524 Y195.648 E19.91286
G1 X53.138 Y195.543 E19.92616
G1 X52.261 Y195.263 E19.95678
G1 X51.751 Y195.061 E19.97503
G1 X51.412 Y194.916 E19.98729
G1 X51.098 Y194.776 E19.99873
G1 X50.693 Y194.587 E20.01359
G1 X49.877 Y194.161 E20.04421
G1 X49.398 Y193.868 E20.06288
G1 X49.055 Y193.645 E20.07649
G1 X48.818 Y193.486 E20.08598
G1 X48.506 Y193.271 E20.09858
G1 X47.635 Y192.601 E20.13513
G1 X47.269 Y192.278 E20.15137
G1 X47.043 Y192.069 E20.16161
G1 X46.843 Y191.88 E20.17076
G1 X46.533 Y191.578 E20.18515
G1 X45.902 Y190.907 E20.21579
G1 X45.579 Y190.514 E20.23271
G1 X45.346 Y190.216 E20.24529
G1 X45.141 Y189.945 E20.25659
G1 X44.885 Y189.595 E20.27101
G1 X44.375 Y188.829 E20.30162
G1 X44.088 Y188.325 E20.32091
G1 X43.896 Y187.965 E20.33448
G1 X43.732 Y187.645 E20.34644
G1 X43.552 Y187.278 E20.36004
G1 X43.183 Y186.434 E20.39068
G1 X43.016 Y185.971 E20.40705
G1 X42.905 Y185.639 E20.41869
G1 X42.803 Y185.317 E20.42992
G1 X42.674 Y184.886 E20.44489
G1 X42.422 Y183.861 E20.47999
G1 X42.336 Y183.371 E20.49654
G1 X42.295 Y183.1 E20.50566
G1 X42.26 Y182.843 E20.51428
G1 X42.202 Y182.384 E20.52967
G1 X42.144 Y181.791 E20.54949
G1 X42.084 Y180.918 E20.57859
G1 X41.075 Y162.556 E21.19024
G1 X40.894 Y159.935 E21.27762
G1 X40.649 Y157.428 E21.3614
G1 X40.328 Y154.881 E21.44678
G1 X39.949 Y152.438 E21.52901
G1 X39.487 Y149.933 E21.61373
G1 X38.961 Y147.465 E21.69766
G1 X38.364 Y145.013 E21.7816
G1 X37.685 Y142.531 E21.86718
G1 X36.961 Y140.149 E21.94999
G1 X36.32 Y138.216 E22.01772
G1 X35.762 Y136.595 E22.07474
G1 X34.597 Y133.398 E22.18791
G1 X34.387 Y132.855 E22.20728
G1 X33.43 Y130.474 E22.29263
G1 X32.409 Y128.126 E22.37779
G1 X31.35 Y125.869 E22.46071
G1 X30.21 Y123.607 E22.54496
G1 X29.007 Y121.379 E22.62917
G1 X27.748 Y119.198 E22.71293
G1 X26.402 Y117.013 E22.79829
G1 X25.017 Y114.899 E22.88234
G1 X23.596 Y112.86 E22.96501
G1 X22.081 Y110.809 E23.04982
G1 X20.524 Y108.824 E23.13372
G1 X18.896 Y106.863 E23.21849
G1 X17.244 Y104.986 E23.30166
G1 X15.524 Y103.137 E23.38565
G1 X13.729 Y101.316 E23.4707
G1 X11.901 Y99.563 E23.55493
G1 X11.027 Y98.761 E23.59439
G1 X10.376 Y98.109 E23.62503
G1 X10.016 Y97.695 E23.64328
G1 X9.715 Y97.33 E23.65902
G1 X9.161 Y96.595 E23.68963
G1 X8.672 Y95.815 E23.72025
G1 X8.253 Y94.995 E23.75087
G1 X7.98 Y94.341 E23.77445
G1 X7.83 Y93.945 E23.78853
G1 X7.542 Y93.071 E23.81914
G1 X7.33 Y92.174 E23.84979
G1 X7.169 Y90.937 E23.89128
G1 X7.135 Y90.456 E23.90732
G1 X7.116 Y90.104 E23.91905
G1 X7.111 Y89.97 E23.92351
G1 X7.105 Y89.683 E23.93305
G1 X7.1 Y89.199 E23.94915
G1 X7.1 Y88.373 E23.97663
G1 X7.11 Y87.704 E23.99888
G1 X7.164 Y86.784 E24.02953
G1 X7.257 Y86.096 E24.05262
G1 X7.269 Y86.025 E24.05502
G1 X7.48 Y85.054 E24.08807
G1 X7.538 Y84.837 E24.09554
G1 X7.815 Y83.959 E24.12616
G1 X8.166 Y83.108 E24.15678
G1 X8.59 Y82.29 E24.18742
G1 X9.083 Y81.513 E24.21803
G1 X9.642 Y80.781 E24.24866
G1 X10.262 Y80.101 E24.27927
