;FLAVOR:Marlin
;TIME:7746
;Filament used: 5.07586m
;Layer height: 0.2
;MINX:20.875
;MINY:77.874
;MINZ:0.2
;MAXX:94.126
;MAXY:157.499
;MAXZ:10.4
;Generated with Cura_SteamEngine 4.8.0
M140 S50
M105
M190 S50
M104 S200
M105
M109 S200
M82 ;absolute extrusion mode
; Ender 3 Custom Start G-code
G92 E0 ; Reset Extruder
G28 ; Home all axes
G1 Z2.0 F3000 ; Move Z Axis up little to prevent scratching of Heat Bed
G1 X0.1 Y20 Z0.3 F5000.0 ; Move to start position
G1 X0.1 Y200.0 Z0.3 F1500.0 E15 ; Draw the first line
G1 X0.4 Y200.0 Z0.3 F5000.0 ; Move to side a little
G1 X0.4 Y20 Z0.3 F1500.0 E30 ; Draw the second line
G92 E0 ; Reset Extruder
G1 Z2.0 F3000 ; Move Z Axis up little to prevent scratching of Heat Bed
G1 X5 Y20 Z0.3 F5000.0 ; Move over to prevent blob squish
G92 E0
G92 E0
G1 F2700 E-5
;LAYER_COUNT:52
;LAYER:0
M107
G0 F6000 X29.112 Y78.68 Z0.2
;TYPE:SKIRT
G1 F2700 E0
G1 F1200 X29.482 Y78.549 E0.01305
G1 X29.678 Y78.484 E0.01992
G1 X30.58 Y78.227 E0.05112
G1 X31.546 Y78.041 E0.08384
G1 X31.662 Y78.024 E0.08774
G1 X32.206 Y77.958 E0.10596
G1 X32.456 Y77.934 E0.11432
G1 X33.353 Y77.885 E0.14419
G1 X34.222 Y77.874 E0.1731
G1 X80.792 Y77.874 E1.72202
G1 X81.648 Y77.885 E1.7505
G1 X82.652 Y77.946 E1.78395
G1 X82.991 Y77.982 E1.79529
G1 X83.918 Y78.12 E1.82646
G1 X84.781 Y78.323 E1.85595
G1 X84.921 Y78.362 E1.86078
G1 X85.774 Y78.638 E1.8906
G1 X86.01 Y78.725 E1.89897
G1 X86.875 Y79.087 E1.93016
G1 X88.05 Y79.727 E1.97466
G1 X88.337 Y79.907 E1.98593
G1 X89.109 Y80.439 E2.01711
G1 X89.703 Y80.919 E2.04251
G1 X89.794 Y80.998 E2.04652
G1 X90.49 Y81.658 E2.07842
G1 X90.667 Y81.841 E2.08689
G1 X91.289 Y82.542 E2.11806
G1 X91.831 Y83.265 E2.14811
G1 X91.89 Y83.351 E2.15158
G1 X92.21 Y83.847 E2.17121
G1 X92.346 Y84.07 E2.1799
G1 X92.8 Y84.89 E2.21108
G1 X93.336 Y86.16 E2.25692
G1 X93.453 Y86.494 E2.26869
G1 X93.726 Y87.392 E2.29991
G1 X93.934 Y88.393 E2.33392
G1 X93.954 Y88.518 E2.33813
G1 X94.039 Y89.175 E2.36016
G1 X94.063 Y89.418 E2.36828
G1 X94.115 Y90.347 E2.39923
G1 X94.126 Y91.222 E2.42833
G1 X94.125 Y143.95 E4.18207
G1 X94.115 Y144.648 E4.20529
G1 X94.054 Y145.655 E4.23885
G1 X94.018 Y145.993 E4.25015
G1 X93.879 Y146.921 E4.28136
G1 X93.691 Y147.729 E4.30895
G1 X93.653 Y147.868 E4.31375
G1 X93.368 Y148.758 E4.34483
G1 X93.281 Y148.995 E4.35323
G1 X92.921 Y149.86 E4.38439
G1 X92.255 Y151.079 E4.43059
G1 X92.068 Y151.375 E4.44223
G1 X91.533 Y152.146 E4.47345
G1 X90.973 Y152.826 E4.50275
G1 X90.898 Y152.91 E4.50649
G1 X90.361 Y153.471 E4.53232
G1 X90.181 Y153.646 E4.54067
G1 X89.481 Y154.27 E4.57186
G1 X88.731 Y154.833 E4.60305
G1 X88.623 Y154.907 E4.60741
G1 X88.113 Y155.236 E4.62759
G1 X87.912 Y155.358 E4.63541
G1 X87.09 Y155.81 E4.66661
G1 X86.013 Y156.274 E4.70562
G1 X85.864 Y156.329 E4.7109
G1 X85.518 Y156.451 E4.7231
G1 X85.322 Y156.516 E4.72997
G1 X84.42 Y156.773 E4.76116
G1 X83.454 Y156.959 E4.79388
G1 X83.338 Y156.976 E4.79778
G1 X82.794 Y157.042 E4.81601
G1 X82.544 Y157.066 E4.82436
G1 X81.647 Y157.115 E4.85424
G1 X80.778 Y157.126 E4.88315
G1 X68.802 Y157.125 E5.28147
G1 X68.097 Y157.115 E5.30492
G1 X67.787 Y157.106 E5.31524
G1 X66.501 Y157.05 E5.35805
G1 X66.408 Y157.045 E5.36115
G1 X63.88 Y156.968 E5.44527
G1 X61.399 Y156.962 E5.52779
G1 X57.892 Y157.071 E5.64449
G1 X56.77 Y157.125 E5.68185
G1 X55.188 Y157.176 E5.73449
G1 X52.673 Y157.327 E5.81829
G1 X51.946 Y157.39 E5.84256
G1 X51.015 Y157.458 E5.87361
G1 X50.39 Y157.486 E5.89442
G1 X49.576 Y157.499 E5.9215
G1 X37.081 Y157.499 E6.33708
G1 X36.223 Y157.488 E6.36562
G1 X34.99 Y157.401 E6.40673
G1 X33.836 Y157.254 E6.44542
G1 X33.573 Y157.217 E6.45426
G1 X33.171 Y157.168 E6.46773
G1 X31.739 Y156.985 E6.51574
G1 X30.814 Y156.827 E6.54695
G1 X29.747 Y156.54 E6.5837
G1 X29.645 Y156.507 E6.58727
G1 X29.251 Y156.371 E6.60113
G1 X29.016 Y156.285 E6.60946
G1 X28.149 Y155.925 E6.64068
G1 X26.921 Y155.255 E6.68721
G1 X26.625 Y155.068 E6.69885
G1 X25.854 Y154.533 E6.73007
G1 X25.168 Y153.968 E6.75962
G1 X25.083 Y153.892 E6.76342
G1 X24.527 Y153.359 E6.78903
G1 X24.353 Y153.18 E6.79734
G1 X23.729 Y152.48 E6.82853
G1 X23.14 Y151.692 E6.86125
G1 X23.066 Y151.583 E6.86563
G1 X22.759 Y151.104 E6.88455
G1 X22.636 Y150.901 E6.89245
G1 X22.185 Y150.079 E6.92363
G1 X21.727 Y149.017 E6.9621
G1 X21.673 Y148.871 E6.96728
G1 X21.534 Y148.47 E6.98139
G1 X21.469 Y148.271 E6.98835
G1 X21.216 Y147.368 E7.01955
G1 X21.045 Y146.478 E7.04969
G1 X21.028 Y146.364 E7.05352
G1 X20.96 Y145.806 E7.07222
G1 X20.936 Y145.559 E7.08047
G1 X20.885 Y144.645 E7.11092
G1 X20.882 Y144.425 E7.11824
G1 X20.882 Y144.117 E7.12848
G1 X20.901 Y142.854 E7.17049
G1 X20.927 Y141.905 E7.20207
G1 X20.918 Y138.831 E7.30431
G1 X20.878 Y136.773 E7.37277
G1 X20.876 Y136.563 E7.37976
G1 X20.875 Y132.067 E7.5293
G1 X20.902 Y130.205 E7.59123
G1 X20.913 Y129.798 E7.60477
G1 X20.904 Y126.641 E7.70978
G1 X20.878 Y125.303 E7.75429
G1 X20.876 Y125.092 E7.76131
G1 X20.875 Y120.62 E7.91005
G1 X20.902 Y118.678 E7.97464
G1 X20.892 Y115.535 E8.07918
G1 X20.878 Y114.792 E8.1039
G1 X20.876 Y114.586 E8.11075
G1 X20.875 Y110.12 E8.25929
G1 X20.898 Y108.472 E8.31411
G1 X20.888 Y105.326 E8.41874
G1 X20.876 Y104.583 E8.44346
G1 X20.875 Y100.085 E8.59306
G1 X20.893 Y98.829 E8.63484
G1 X20.882 Y95.578 E8.74297
G1 X20.875 Y95.095 E8.75904
G1 X20.875 Y91.05 E8.89357
G1 X20.885 Y90.352 E8.91679
G1 X20.948 Y89.323 E8.95108
G1 X20.985 Y88.982 E8.96249
G1 X21.126 Y88.055 E8.99368
G1 X21.321 Y87.229 E9.0219
G1 X21.359 Y87.092 E9.02663
G1 X21.642 Y86.217 E9.05722
G1 X21.73 Y85.979 E9.06566
G1 X22.092 Y85.114 E9.09685
G1 X22.738 Y83.933 E9.14162
G1 X22.925 Y83.636 E9.15329
G1 X23.459 Y82.864 E9.18451
G1 X24.063 Y82.133 E9.21605
G1 X24.136 Y82.052 E9.21968
G1 X24.639 Y81.529 E9.24381
G1 X24.819 Y81.354 E9.25216
G1 X25.519 Y80.73 E9.28335
G1 X26.269 Y80.167 E9.31455
G1 X26.377 Y80.093 E9.3189
G1 X26.843 Y79.79 E9.33739
G1 X27.037 Y79.671 E9.34496
G1 X27.857 Y79.216 E9.37615
G1 X28.956 Y78.738 E9.41601
G1 X29.112 Y78.68 E9.42154
G0 F6000 X29.251 Y79.054
G1 F1200 X29.608 Y78.929 E9.43412
G1 X29.804 Y78.864 E9.44099
G1 X30.69 Y78.612 E9.47163
G1 X31.604 Y78.437 E9.50258
G1 X31.72 Y78.42 E9.50648
G1 X32.244 Y78.357 E9.52404
G1 X32.494 Y78.333 E9.53239
G1 X33.359 Y78.285 E9.5612
G1 X34.222 Y78.274 E9.58991
G1 X80.792 Y78.274 E11.13883
G1 X81.642 Y78.285 E11.16711
G1 X82.609 Y78.343 E11.19933
G1 X82.948 Y78.379 E11.21067
G1 X83.859 Y78.516 E11.24131
G1 X84.674 Y78.709 E11.26916
G1 X84.814 Y78.748 E11.274
G1 X85.635 Y79.013 E11.30269
G1 X85.871 Y79.1 E11.31106
G1 X86.721 Y79.456 E11.34171
G1 X87.837 Y80.066 E11.38401
G1 X88.124 Y80.246 E11.39528
G1 X88.882 Y80.769 E11.42591
G1 X89.441 Y81.222 E11.44984
G1 X89.532 Y81.301 E11.45384
G1 X90.202 Y81.936 E11.48455
G1 X90.379 Y82.119 E11.49302
G1 X90.99 Y82.808 E11.52364
G1 X91.501 Y83.491 E11.55202
G1 X91.56 Y83.577 E11.55548
G1 X91.869 Y84.055 E11.57441
G1 X92.005 Y84.278 E11.5831
G1 X92.45 Y85.084 E11.61372
G1 X92.959 Y86.293 E11.65735
G1 X93.076 Y86.627 E11.66913
G1 X93.342 Y87.508 E11.69973
G1 X93.539 Y88.456 E11.73194
G1 X93.559 Y88.581 E11.73615
G1 X93.641 Y89.214 E11.75738
G1 X93.665 Y89.457 E11.7655
G1 X93.715 Y90.352 E11.79531
G1 X93.726 Y91.222 E11.82425
G1 X93.725 Y143.944 E13.57779
G1 X93.715 Y144.642 E13.60101
G1 X93.656 Y145.613 E13.63337
G1 X93.62 Y145.951 E13.64467
G1 X93.483 Y146.861 E13.67528
G1 X93.305 Y147.623 E13.70131
G1 X93.267 Y147.762 E13.7061
G1 X92.993 Y148.62 E13.73606
G1 X92.906 Y148.857 E13.74445
G1 X92.551 Y149.706 E13.77506
G1 X91.916 Y150.865 E13.81902
G1 X91.729 Y151.161 E13.83066
G1 X91.204 Y151.918 E13.8613
G1 X90.675 Y152.56 E13.88897
G1 X90.6 Y152.644 E13.89271
G1 X90.082 Y153.184 E13.9176
G1 X89.902 Y153.359 E13.92595
G1 X89.215 Y153.972 E13.95658
G1 X88.504 Y154.503 E13.98609
G1 X88.396 Y154.577 E13.99044
G1 X87.905 Y154.894 E14.00988
G1 X87.704 Y155.016 E14.0177
G1 X86.897 Y155.46 E14.04834
G1 X85.875 Y155.899 E14.08533
G1 X85.726 Y155.954 E14.09062
G1 X85.392 Y156.071 E14.10239
G1 X85.196 Y156.136 E14.10926
G1 X84.31 Y156.388 E14.13989
G1 X83.396 Y156.563 E14.17084
G1 X83.28 Y156.58 E14.17474
G1 X82.756 Y156.643 E14.1923
G1 X82.506 Y156.667 E14.20065
G1 X81.641 Y156.715 E14.22947
G1 X80.778 Y156.726 E14.25817
G1 X68.808 Y156.725 E14.6563
G1 X68.103 Y156.715 E14.67975
G1 X67.804 Y156.706 E14.6897
G1 X66.524 Y156.651 E14.73231
G1 X66.408 Y156.644 E14.73617
G1 X63.893 Y156.568 E14.81986
G1 X61.387 Y156.562 E14.90321
G1 X57.914 Y156.67 E15.01878
G1 X56.757 Y156.726 E15.05731
G1 X55.151 Y156.778 E15.11075
G1 X52.614 Y156.93 E15.19528
G1 X51.917 Y156.991 E15.21855
G1 X50.986 Y157.059 E15.2496
G1 X50.383 Y157.086 E15.26968
G1 X49.569 Y157.099 E15.29675
G1 X37.081 Y157.099 E15.71211
G1 X36.229 Y157.088 E15.74045
G1 X35.041 Y157.004 E15.78006
G1 X33.887 Y156.857 E15.81875
G1 X33.634 Y156.822 E15.82725
G1 X33.221 Y156.771 E15.84109
G1 X31.789 Y156.588 E15.8891
G1 X30.882 Y156.432 E15.91971
G1 X29.87 Y156.159 E15.95457
G1 X29.768 Y156.126 E15.95814
G1 X29.388 Y155.995 E15.97151
G1 X29.153 Y155.909 E15.97983
G1 X28.303 Y155.556 E16.01044
G1 X27.135 Y154.916 E16.05474
G1 X26.839 Y154.729 E16.06639
G1 X26.082 Y154.204 E16.09703
G1 X25.435 Y153.67 E16.12493
G1 X25.35 Y153.594 E16.12872
G1 X24.814 Y153.08 E16.15342
G1 X24.64 Y152.901 E16.16172
G1 X24.028 Y152.214 E16.19233
G1 X23.471 Y151.467 E16.22332
G1 X23.397 Y151.358 E16.2277
G1 X23.101 Y150.897 E16.24592
G1 X22.978 Y150.694 E16.25382
G1 X22.536 Y149.887 E16.28442
G1 X22.102 Y148.878 E16.32095
G1 X22.048 Y148.732 E16.32613
G1 X21.914 Y148.346 E16.33972
G1 X21.849 Y148.147 E16.34668
G1 X21.601 Y147.26 E16.37731
G1 X21.441 Y146.419 E16.40579
G1 X21.424 Y146.305 E16.40962
G1 X21.358 Y145.767 E16.42765
G1 X21.334 Y145.52 E16.4359
G1 X21.285 Y144.64 E16.46522
G1 X21.282 Y144.42 E16.47254
G1 X21.282 Y144.123 E16.48241
G1 X21.301 Y142.865 E16.52426
G1 X21.328 Y141.915 E16.55587
G1 X21.318 Y138.822 E16.65874
G1 X21.278 Y136.765 E16.72717
G1 X21.276 Y136.563 E16.73389
G1 X21.275 Y132.073 E16.88323
G1 X21.302 Y130.216 E16.945
G1 X21.314 Y129.808 E16.95858
G1 X21.304 Y126.631 E17.06424
G1 X21.278 Y125.295 E17.10869
G1 X21.276 Y125.092 E17.11544
G1 X21.275 Y120.625 E17.26401
G1 X21.302 Y118.682 E17.32864
G1 X21.292 Y115.526 E17.43361
G1 X21.276 Y114.586 E17.46488
G1 X21.275 Y110.126 E17.61322
G1 X21.298 Y108.476 E17.66811
G1 X21.288 Y105.316 E17.77321
G1 X21.276 Y104.583 E17.79759
G1 X21.275 Y100.091 E17.947
G1 X21.293 Y98.834 E17.98881
G1 X21.282 Y95.569 E18.0974
G1 X21.275 Y95.095 E18.11317
G1 X21.275 Y91.056 E18.24751
G1 X21.285 Y90.358 E18.27073
G1 X21.346 Y89.367 E18.30375
G1 X21.383 Y89.026 E18.31516
G1 X21.522 Y88.115 E18.34581
G1 X21.707 Y87.336 E18.37244
G1 X21.745 Y87.199 E18.37717
G1 X22.017 Y86.356 E18.40663
G1 X22.105 Y86.118 E18.41507
G1 X22.461 Y85.269 E18.44569
G1 X23.077 Y84.146 E18.48829
G1 X23.264 Y83.849 E18.49996
G1 X23.788 Y83.092 E18.53059
G1 X24.36 Y82.401 E18.56042
G1 X24.433 Y82.32 E18.56405
G1 X24.918 Y81.816 E18.58731
G1 X25.098 Y81.641 E18.59566
G1 X25.785 Y81.028 E18.62629
G1 X26.496 Y80.497 E18.6558
G1 X26.604 Y80.423 E18.66015
G1 X27.053 Y80.131 E18.67797
G1 X27.247 Y80.012 E18.68554
G1 X28.052 Y79.566 E18.71615
G1 X29.095 Y79.112 E18.75398
G1 X29.251 Y79.054 E18.75952
G0 F6000 X29.39 Y79.429
G1 F1200 X29.734 Y79.309 E18.77163
G1 X29.93 Y79.244 E18.7785
G1 X30.799 Y78.997 E18.80855
G1 X31.662 Y78.833 E18.83777
G1 X31.778 Y78.816 E18.84167
G1 X32.282 Y78.755 E18.85855
G1 X32.532 Y78.731 E18.86691
G1 X33.364 Y78.685 E18.89462
G1 X34.222 Y78.674 E18.92316
G1 X80.792 Y78.674 E20.47208
G1 X81.636 Y78.685 E20.50016
G1 X82.567 Y78.741 E20.53118
G1 X82.906 Y78.777 E20.54252
G1 X83.799 Y78.912 E20.57256
G1 X84.566 Y79.094 E20.59878
G1 X84.706 Y79.133 E20.60361
G1 X85.497 Y79.389 E20.63126
G1 X85.733 Y79.476 E20.63963
G1 X86.566 Y79.825 E20.66967
G1 X87.625 Y80.405 E20.70983
G1 X87.912 Y80.585 E20.72109
G1 X88.655 Y81.098 E20.75112
G1 X89.179 Y81.524 E20.77359
G1 X89.27 Y81.603 E20.77759
G1 X89.915 Y82.214 E20.80714
G1 X90.092 Y82.397 E20.81561
G1 X90.69 Y83.073 E20.84563
G1 X91.171 Y83.718 E20.87239
G1 X91.23 Y83.804 E20.87586
G1 X91.527 Y84.263 E20.89404
G1 X91.663 Y84.486 E20.90273
G1 X92.099 Y85.277 E20.93277
G1 X92.581 Y86.425 E20.97418
G1 X92.698 Y86.759 E20.98595
G1 X92.959 Y87.624 E21.01601
G1 X93.144 Y88.519 E21.0464
G1 X93.164 Y88.644 E21.05061
G1 X93.243 Y89.253 E21.07104
G1 X93.267 Y89.496 E21.07916
G1 X93.315 Y90.358 E21.10787
G1 X93.326 Y91.222 E21.13661
G1 X93.325 Y143.938 E22.88995
G1 X93.315 Y144.636 E22.91317
G1 X93.259 Y145.57 E22.94429
G1 X93.223 Y145.908 E22.9556
G1 X93.087 Y146.801 E22.98564
G1 X92.919 Y147.518 E23.01014
G1 X92.881 Y147.657 E23.01493
G1 X92.617 Y148.482 E23.04374
G1 X92.53 Y148.719 E23.05214
G1 X92.182 Y149.552 E23.08216
G1 X91.578 Y150.652 E23.1239
G1 X91.391 Y150.948 E23.13555
G1 X90.876 Y151.689 E23.16556
G1 X90.377 Y152.293 E23.19162
G1 X90.302 Y152.377 E23.19536
G1 X89.803 Y152.897 E23.21933
G1 X89.623 Y153.072 E23.22768
G1 X88.948 Y153.673 E23.25774
G1 X88.278 Y154.173 E23.28555
G1 X88.17 Y154.247 E23.2899
G1 X87.697 Y154.553 E23.30864
G1 X87.496 Y154.675 E23.31646
G1 X86.704 Y155.108 E23.34648
G1 X85.736 Y155.524 E23.38153
G1 X85.587 Y155.579 E23.38681
G1 X85.266 Y155.691 E23.39812
G1 X85.07 Y155.756 E23.40498
G1 X84.201 Y156.003 E23.43503
G1 X83.338 Y156.167 E23.46425
G1 X83.222 Y156.184 E23.46815
G1 X82.718 Y156.245 E23.48503
G1 X82.468 Y156.269 E23.49339
G1 X81.636 Y156.315 E23.5211
G1 X80.778 Y156.326 E23.54964
G1 X68.813 Y156.325 E23.9476
G1 X68.108 Y156.315 E23.97105
G1 X67.821 Y156.307 E23.9806
G1 X66.547 Y156.252 E24.02301
G1 X66.407 Y156.244 E24.02768
G1 X63.906 Y156.168 E24.1109
G1 X61.376 Y156.162 E24.19505
G1 X57.881 Y156.27 E24.31135
G1 X56.744 Y156.326 E24.34921
G1 X55.15 Y156.377 E24.40225
G1 X52.591 Y156.531 E24.48752
G1 X51.888 Y156.592 E24.51099
G1 X50.957 Y156.66 E24.54204
G1 X50.377 Y156.686 E24.56135
G1 X49.399 Y156.7 E24.59388
G1 X36.937 Y156.698 E25.00837
G1 X36.235 Y156.688 E25.03172
G1 X35.091 Y156.607 E25.06986
G1 X33.937 Y156.46 E25.10855
G1 X33.696 Y156.426 E25.11665
G1 X33.272 Y156.375 E25.13085
G1 X31.84 Y156.192 E25.17887
G1 X30.95 Y156.038 E25.20891
G1 X29.993 Y155.779 E25.24189
G1 X29.891 Y155.746 E25.24545
G1 X29.526 Y155.62 E25.25829
G1 X29.291 Y155.534 E25.26662
G1 X28.457 Y155.186 E25.29667
G1 X27.348 Y154.578 E25.33874
G1 X27.052 Y154.391 E25.35038
G1 X26.311 Y153.876 E25.3804
G1 X25.701 Y153.372 E25.40672
G1 X25.616 Y153.296 E25.41051
G1 X25.101 Y152.802 E25.43424
G1 X24.927 Y152.623 E25.44255
G1 X24.327 Y151.948 E25.47258
G1 X23.802 Y151.242 E25.50185
G1 X23.728 Y151.133 E25.50623
G1 X23.443 Y150.69 E25.52375
G1 X23.32 Y150.487 E25.53164
G1 X22.887 Y149.694 E25.56169
G1 X22.477 Y148.739 E25.59626
G1 X22.423 Y148.593 E25.60144
G1 X22.294 Y148.222 E25.6145
G1 X22.229 Y148.023 E25.62147
G1 X21.987 Y147.153 E25.6515
G1 X21.837 Y146.36 E25.67834
G1 X21.82 Y146.246 E25.68218
G1 X21.756 Y145.728 E25.69954
G1 X21.732 Y145.481 E25.70779
G1 X21.685 Y144.634 E25.73601
G1 X21.682 Y144.414 E25.74332
G1 X21.682 Y144.129 E25.7528
G1 X21.701 Y142.877 E25.79445
G1 X21.728 Y141.926 E25.82609
G1 X21.718 Y138.814 E25.9296
G1 X21.678 Y136.758 E25.99799
G1 X21.676 Y136.563 E26.00448
G1 X21.675 Y132.079 E26.15362
G1 X21.702 Y130.227 E26.21522
G1 X21.714 Y129.818 E26.22883
G1 X21.704 Y126.622 E26.33513
G1 X21.678 Y125.287 E26.37954
G1 X21.676 Y125.092 E26.38603
G1 X21.675 Y120.631 E26.5344
G1 X21.702 Y118.686 E26.5991
G1 X21.692 Y115.518 E26.70447
G1 X21.676 Y114.586 E26.73547
G1 X21.675 Y110.131 E26.88365
G1 X21.698 Y108.48 E26.93856
G1 X21.688 Y105.308 E27.04406
G1 X21.676 Y104.583 E27.06818
G1 X21.675 Y100.096 E27.21742
G1 X21.693 Y98.838 E27.25927
G1 X21.682 Y95.559 E27.36833
G1 X21.675 Y95.095 E27.38376
G1 X21.675 Y91.062 E27.5179
G1 X21.685 Y90.364 E27.54112
G1 X21.744 Y89.41 E27.57291
G1 X21.781 Y89.069 E27.58432
G1 X21.918 Y88.176 E27.61436
G1 X22.092 Y87.443 E27.63942
G1 X22.13 Y87.306 E27.64415
G1 X22.392 Y86.495 E27.6725
G1 X22.48 Y86.257 E27.68094
G1 X22.83 Y85.424 E27.71099
G1 X23.415 Y84.359 E27.7514
G1 X23.602 Y84.062 E27.76308
G1 X24.117 Y83.32 E27.79312
G1 X24.657 Y82.668 E27.82127
G1 X24.73 Y82.587 E27.8249
