;FLAVOR:Marlin
;TIME:2052
;Filament used: 1.37491m
;Layer height: 0.2
;MINX:33.463
;MINY:59.805
;MINZ:0.2
;MAXX:81.539
;MAXY:175.191
;MAXZ:3.6
;Generated with Cura_SteamEngine 4.8.0
M140 S50
M105
M190 S50
M104 S200
M105
M109 S200
M82 ;absolute extrusion mode
; Ender 3 Custom Start G-code
G92 E0 ; Reset Extruder
G28 ; Home all axes
G1 Z2.0 F3000 ; Move Z Axis up little to prevent scratching of Heat Bed
G1 X0.1 Y20 Z0.3 F5000.0 ; Move to start position
G1 X0.1 Y200.0 Z0.3 F1500.0 E15 ; Draw the first line
G1 X0.4 Y200.0 Z0.3 F5000.0 ; Move to side a little
G1 X0.4 Y20 Z0.3 F1500.0 E30 ; Draw the second line
G92 E0 ; Reset Extruder
G1 Z2.0 F3000 ; Move Z Axis up little to prevent scratching of Heat Bed
G1 X5 Y20 Z0.3 F5000.0 ; Move over to prevent blob squish
G92 E0
G92 E0
G1 F2700 E-5
;LAYER_COUNT:18
;LAYER:0
M107
G0 F6000 X46.681 Y62.635 Z0.2
;TYPE:SKIRT
G1 F2700 E0
G1 F1200 X47.014 Y62.414 E0.01329
G1 X47.292 Y62.236 E0.02427
G1 X47.564 Y62.067 E0.03492
G1 X48.649 Y61.474 E0.07605
G1 X48.99 Y61.312 E0.0886
G1 X49.273 Y61.182 E0.09896
G1 X49.577 Y61.048 E0.11001
G1 X50.769 Y60.603 E0.15233
G1 X51.148 Y60.486 E0.16552
G1 X51.705 Y60.326 E0.1848
G1 X52.977 Y60.047 E0.22811
G1 X53.363 Y59.986 E0.24111
G1 X53.678 Y59.941 E0.25169
G1 X53.997 Y59.9 E0.26239
G1 X55.218 Y59.811 E0.30311
G1 X55.582 Y59.805 E0.31522
G1 X55.92 Y59.805 E0.32646
G1 X56.271 Y59.81 E0.33813
G1 X57.493 Y59.896 E0.37888
G1 X57.857 Y59.942 E0.39108
G1 X58.208 Y59.992 E0.40287
G1 X58.547 Y60.046 E0.41429
G1 X59.76 Y60.31 E0.45558
G1 X60.149 Y60.418 E0.46901
G1 X60.418 Y60.496 E0.47832
G1 X60.703 Y60.583 E0.48823
G1 X61.94 Y61.044 E0.53214
G1 X62.338 Y61.22 E0.54662
G1 X62.601 Y61.34 E0.55623
G1 X62.871 Y61.468 E0.56617
G1 X63.958 Y62.06 E0.60734
G1 X64.253 Y62.243 E0.61888
G1 X64.54 Y62.428 E0.63024
G1 X64.817 Y62.612 E0.6413
G1 X65.811 Y63.356 E0.6826
G1 X66.138 Y63.631 E0.69681
G1 X66.665 Y64.104 E0.72036
G1 X67.649 Y65.046 E0.76567
G1 X67.82 Y65.214 E0.77364
G1 X77.949 Y75.344 E1.2501
G1 X78.421 Y75.829 E1.27261
G1 X79.046 Y76.529 E1.30382
G1 X79.609 Y77.279 E1.33501
G1 X80.106 Y78.074 E1.3662
G1 X80.534 Y78.909 E1.3974
G1 X80.888 Y79.777 E1.42858
G1 X81.168 Y80.672 E1.45977
G1 X81.37 Y81.588 E1.49097
G1 X81.494 Y82.518 E1.52218
G1 X81.538 Y83.454 E1.55334
G1 X81.505 Y84.349 E1.58313
G1 X81.395 Y85.763 E1.6303
G1 X81.389 Y85.828 E1.63247
G1 X81.228 Y88.367 E1.71709
G1 X81.141 Y90.855 E1.79989
G1 X81.124 Y93.383 E1.88398
G1 X81.178 Y95.936 E1.96891
G1 X81.301 Y98.397 E2.05086
G1 X81.506 Y101.021 E2.1384
G1 X81.539 Y101.958 E2.16959
G1 X81.506 Y102.731 E2.19532
G1 X81.454 Y103.395 E2.21747
G1 X81.29 Y105.979 E2.30359
G1 X81.202 Y108.478 E2.38676
G1 X81.185 Y110.998 E2.47058
G1 X81.239 Y113.525 E2.55465
G1 X81.364 Y116.054 E2.63886
G1 X81.47 Y117.417 E2.68433
G1 X81.517 Y118.159 E2.70906
G1 X81.517 Y119.549 E2.75529
G1 X81.349 Y122.198 E2.84358
G1 X81.262 Y124.688 E2.92644
G1 X81.245 Y127.248 E3.01159
G1 X81.298 Y129.71 E3.0935
G1 X81.428 Y132.33 E3.18075
G1 X81.516 Y133.689 E3.22604
G1 X81.526 Y134.932 E3.26739
G1 X81.485 Y135.765 E3.29513
G1 X81.399 Y137.118 E3.34022
G1 X81.312 Y139.602 E3.42289
G1 X81.295 Y142.163 E3.50807
G1 X81.349 Y144.654 E3.59094
G1 X81.477 Y147.237 E3.67695
G1 X81.516 Y147.84 E3.69705
G1 X81.537 Y148.778 E3.72826
G1 X81.477 Y149.714 E3.75945
G1 X81.338 Y150.641 E3.79063
G1 X81.12 Y151.554 E3.82185
G1 X80.826 Y152.444 E3.85302
G1 X80.457 Y153.306 E3.88421
G1 X80.015 Y154.134 E3.91543
G1 X79.505 Y154.921 E3.94662
G1 X78.93 Y155.661 E3.97779
G1 X78.583 Y156.051 E3.99515
G1 X78.375 Y156.274 E4.00529
G1 X78.109 Y156.549 E4.01802
G1 X63.954 Y170.702 E4.68378
G1 X63.551 Y171.093 E4.70246
G1 X63.05 Y171.55 E4.72501
G1 X62.511 Y172.012 E4.74862
G1 X62.132 Y172.323 E4.76493
G1 X61.372 Y172.872 E4.79611
G1 X60.601 Y173.337 E4.82606
G1 X60.132 Y173.591 E4.8438
G1 X59.835 Y173.744 E4.85491
G1 X58.983 Y174.137 E4.88612
G1 X58.137 Y174.446 E4.91607
G1 X57.864 Y174.533 E4.9256
G1 X57.592 Y174.615 E4.93505
G1 X57.32 Y174.694 E4.94447
G1 X56.409 Y174.917 E4.97567
G1 X55.628 Y175.045 E5.00199
G1 X55.39 Y175.075 E5.00997
G1 X54.935 Y175.122 E5.02518
G1 X54.578 Y175.152 E5.0371
G1 X53.641 Y175.191 E5.06829
G1 X52.727 Y175.152 E5.09872
G1 X52.444 Y175.128 E5.10816
G1 X52.143 Y175.098 E5.11822
G1 X51.841 Y175.064 E5.12833
G1 X50.915 Y174.919 E5.15951
G1 X50.062 Y174.713 E5.18869
G1 X49.823 Y174.645 E5.19696
G1 X49.492 Y174.545 E5.20846
G1 X49.172 Y174.443 E5.21963
G1 X48.635 Y174.257 E5.23853
G1 X47.391 Y173.7 E5.28386
G1 X46.952 Y173.467 E5.30039
G1 X46.651 Y173.3 E5.31184
G1 X45.851 Y172.81 E5.34305
G1 X45.121 Y172.275 E5.37315
G1 X44.912 Y172.108 E5.38205
G1 X44.559 Y171.814 E5.39733
G1 X44.053 Y171.358 E5.41998
G1 X43.215 Y170.554 E5.45861
G1 X43.052 Y170.394 E5.4662
G1 X38.526 Y165.866 E5.67914
G1 X38.059 Y165.384 E5.70146
G1 X37.436 Y164.683 E5.73265
G1 X36.874 Y163.932 E5.76385
G1 X36.379 Y163.136 E5.79503
G1 X35.953 Y162.3 E5.82624
G1 X35.6 Y161.431 E5.85743
G1 X35.323 Y160.535 E5.88863
G1 X35.09 Y159.425 E5.92635
G1 X35.073 Y159.316 E5.93002
G1 X35.005 Y158.792 E5.94759
G1 X34.742 Y156.336 E6.02975
G1 X34.388 Y153.733 E6.11712
G1 X34.289 Y153.069 E6.13945
G1 X34.19 Y152.136 E6.17065
G1 X34.17 Y151.211 E6.20143
G1 X34.193 Y150.105 E6.23822
G1 X34.205 Y149.747 E6.25013
G1 X34.224 Y147.221 E6.33415
G1 X34.169 Y144.582 E6.42194
G1 X34.17 Y144.133 E6.43688
G1 X34.203 Y142.602 E6.48781
G1 X34.21 Y142.401 E6.4945
G1 X34.222 Y139.882 E6.57828
G1 X34.169 Y137.507 E6.6573
G1 X34.17 Y137.062 E6.6721
G1 X34.19 Y136.15 E6.70244
G1 X34.232 Y134.927 E6.74314
G1 X34.247 Y132.399 E6.82722
G1 X34.217 Y131.005 E6.8736
G1 X34.212 Y130.349 E6.89542
G1 X34.215 Y130.019 E6.90639
G1 X34.226 Y129.532 E6.9226
G1 X34.292 Y127.595 E6.98706
G1 X34.308 Y125.061 E7.07134
G1 X34.253 Y122.563 E7.15444
G1 X34.207 Y121.62 E7.18585
G1 X34.175 Y120.728 E7.21553
G1 X34.181 Y119.799 E7.24643
G1 X34.243 Y118.525 E7.28886
G1 X34.262 Y118.21 E7.29935
G1 X34.35 Y115.711 E7.38252
G1 X34.366 Y113.152 E7.46763
G1 X34.313 Y110.667 E7.55031
G1 X34.182 Y108.061 E7.63709
G1 X34.168 Y107.594 E7.65263
G1 X34.163 Y106.763 E7.68027
G1 X34.173 Y105.504 E7.72215
G1 X34.12 Y102.983 E7.80601
G1 X33.996 Y100.465 E7.88986
G1 X33.802 Y97.96 E7.97343
G1 X33.523 Y95.344 E8.06093
G1 X33.463 Y94.408 E8.09213
G1 X33.523 Y93.015 E8.1385
G1 X33.661 Y91.726 E8.18162
G1 X33.698 Y91.417 E8.19197
G1 X33.93 Y88.891 E8.27634
G1 X34.09 Y86.377 E8.36012
G1 X34.178 Y83.88 E8.44323
G1 X34.195 Y81.327 E8.52814
G1 X34.176 Y80.428 E8.55805
G1 X34.168 Y79.414 E8.59177
G1 X34.201 Y78.476 E8.62299
G1 X34.313 Y77.545 E8.65418
G1 X34.504 Y76.627 E8.68537
G1 X34.773 Y75.729 E8.71655
G1 X35.118 Y74.856 E8.74777
G1 X35.535 Y74.016 E8.77896
G1 X36.022 Y73.215 E8.81014
G1 X36.576 Y72.458 E8.84134
G1 X37.18 Y71.765 E8.87191
G1 X37.446 Y71.484 E8.88478
G1 X37.656 Y71.268 E8.8948
G1 X44.09 Y64.835 E9.19741
G1 X44.585 Y64.355 E9.22035
G1 X44.929 Y64.033 E9.23602
G1 X45.333 Y63.676 E9.25395
G1 X45.689 Y63.377 E9.26941
G1 X46.681 Y62.635 E9.31062
G0 F6000 X46.903 Y62.968
G1 F1200 X47.236 Y62.747 E9.32391
G1 X47.503 Y62.575 E9.33447
G1 X47.775 Y62.406 E9.34512
G1 X48.82 Y61.836 E9.38471
G1 X49.161 Y61.674 E9.39727
G1 X49.435 Y61.548 E9.4073
G1 X49.739 Y61.414 E9.41835
G1 X50.887 Y60.986 E9.4591
G1 X51.266 Y60.869 E9.47229
G1 X51.512 Y60.796 E9.48083
G1 X51.813 Y60.711 E9.49123
G1 X53.039 Y60.442 E9.53298
G1 X53.425 Y60.381 E9.54598
G1 X53.729 Y60.337 E9.55619
G1 X54.048 Y60.296 E9.56689
G1 X55.224 Y60.211 E9.60611
G1 X55.588 Y60.205 E9.61821
G1 X55.914 Y60.205 E9.62906
G1 X56.265 Y60.21 E9.64073
G1 X57.443 Y60.293 E9.68001
G1 X57.807 Y60.339 E9.69221
G1 X58.145 Y60.387 E9.70357
G1 X58.484 Y60.441 E9.71499
G1 X59.653 Y60.695 E9.75477
G1 X60.042 Y60.803 E9.7682
G1 X60.301 Y60.879 E9.77718
G1 X60.586 Y60.966 E9.78709
G1 X61.778 Y61.41 E9.8294
G1 X62.176 Y61.586 E9.84387
G1 X62.43 Y61.702 E9.85316
G1 X62.7 Y61.83 E9.8631
G1 X63.747 Y62.4 E9.90275
G1 X64.042 Y62.583 E9.91429
G1 X64.319 Y62.761 E9.92524
G1 X64.596 Y62.945 E9.9363
G1 X65.553 Y63.662 E9.97608
G1 X65.88 Y63.937 E9.99029
G1 X66.388 Y64.393 E10.01299
G1 X67.372 Y65.335 E10.0583
G1 X67.537 Y65.497 E10.06599
G1 X77.662 Y75.623 E10.54226
G1 X78.134 Y76.108 E10.56477
G1 X78.747 Y76.795 E10.5954
G1 X79.298 Y77.533 E10.62603
G1 X79.783 Y78.315 E10.65663
G1 X80.198 Y79.137 E10.68726
G1 X80.54 Y79.992 E10.71789
G1 X80.807 Y80.873 E10.74851
G1 X80.996 Y81.774 E10.77913
G1 X81.107 Y82.688 E10.80975
G1 X81.137 Y83.608 E10.84037
G1 X81.106 Y84.318 E10.864
G1 X80.99 Y85.803 E10.91354
G1 X80.83 Y88.329 E10.99773
G1 X80.741 Y90.874 E11.08243
G1 X80.724 Y93.389 E11.16608
G1 X80.778 Y95.93 E11.25061
G1 X80.904 Y98.447 E11.33443
G1 X81.107 Y101.052 E11.42134
G1 X81.139 Y101.972 E11.45195
G1 X81.107 Y102.7 E11.47619
G1 X81.057 Y103.338 E11.49748
G1 X80.89 Y105.976 E11.58539
G1 X80.802 Y108.461 E11.6681
G1 X80.785 Y111.004 E11.75268
G1 X80.839 Y113.553 E11.83748
G1 X80.964 Y116.074 E11.92143
G1 X81.071 Y117.442 E11.96707
G1 X81.118 Y118.184 E11.9918
G1 X81.118 Y119.524 E12.03636
G1 X80.951 Y122.16 E12.12421
G1 X80.862 Y124.707 E12.20898
G1 X80.845 Y127.218 E12.2925
G1 X80.9 Y129.773 E12.3775
G1 X81.027 Y132.33 E12.46265
G1 X81.117 Y133.715 E12.50881
G1 X81.127 Y134.912 E12.54862
G1 X81.086 Y135.74 E12.5762
G1 X81.001 Y137.08 E12.62086
G1 X80.912 Y139.62 E12.70539
G1 X80.895 Y142.133 E12.78897
G1 X80.95 Y144.681 E12.87374
G1 X81.08 Y147.287 E12.96052
G1 X81.117 Y147.866 E12.97982
G1 X81.136 Y148.787 E13.01046
G1 X81.076 Y149.705 E13.04106
G1 X80.935 Y150.615 E13.07168
G1 X80.717 Y151.509 E13.10229
G1 X80.422 Y152.381 E13.13291
G1 X80.052 Y153.224 E13.16353
G1 X79.61 Y154.032 E13.19416
G1 X79.1 Y154.799 E13.2248
G1 X78.29 Y155.778 E13.26706
G1 X78.082 Y156.001 E13.2772
G1 X77.826 Y156.267 E13.28948
G1 X63.675 Y170.415 E13.95503
G1 X63.272 Y170.806 E13.9737
G1 X62.789 Y171.246 E13.99543
G1 X62.25 Y171.708 E14.01905
G1 X61.883 Y172.009 E14.03483
G1 X61.137 Y172.548 E14.06544
G1 X60.409 Y172.986 E14.0937
G1 X60.194 Y173.104 E14.10186
G1 X59.948 Y173.235 E14.11113
G1 X59.651 Y173.388 E14.12224
G1 X58.815 Y173.774 E14.15287
G1 X58.016 Y174.065 E14.18115
G1 X57.743 Y174.152 E14.19068
G1 X57.481 Y174.231 E14.19978
G1 X57.209 Y174.31 E14.2092
G1 X56.314 Y174.528 E14.23984
G1 X55.578 Y174.648 E14.26464
G1 X55.34 Y174.678 E14.27262
G1 X54.902 Y174.724 E14.28727
G1 X54.545 Y174.754 E14.29919
G1 X53.625 Y174.791 E14.32981
G1 X52.761 Y174.753 E14.35857
G1 X52.478 Y174.729 E14.36802
G1 X52.188 Y174.7 E14.37771
G1 X51.886 Y174.666 E14.38782
G1 X50.977 Y174.524 E14.41842
G1 X50.171 Y174.328 E14.44601
G1 X49.932 Y174.26 E14.45428
G1 X49.614 Y174.164 E14.46532
G1 X49.294 Y174.062 E14.47649
G1 X48.775 Y173.882 E14.49477
G1 X47.577 Y173.346 E14.53842
G1 X47.146 Y173.117 E14.55465
G1 X46.845 Y172.95 E14.5661
G1 X46.061 Y172.469 E14.59669
G1 X45.371 Y171.962 E14.62517
G1 X45.162 Y171.795 E14.63407
G1 X44.818 Y171.509 E14.64895
G1 X44.329 Y171.069 E14.67083
G1 X43.491 Y170.265 E14.70945
G1 X38.931 Y165.707 E14.92389
G1 X38.813 Y165.588 E14.92947
G1 X38.346 Y165.106 E14.95179
G1 X37.735 Y164.418 E14.98239
G1 X37.186 Y163.679 E15.01301
G1 X36.702 Y162.895 E15.04366
G1 X36.289 Y162.072 E15.07428
G1 X35.949 Y161.217 E15.10489
G1 X35.684 Y160.335 E15.13552
G1 X35.486 Y159.363 E15.16851
G1 X35.469 Y159.254 E15.17218
G1 X35.402 Y158.749 E15.18912
G1 X35.136 Y156.267 E15.27215
G1 X34.773 Y153.595 E15.36184
G1 X34.685 Y153.01 E15.38151
G1 X34.588 Y152.094 E15.41215
G1 X34.57 Y151.22 E15.44122
G1 X34.593 Y150.114 E15.47802
G1 X34.605 Y149.764 E15.48967
G1 X34.624 Y147.216 E15.57441
G1 X34.569 Y144.58 E15.66211
G1 X34.57 Y144.141 E15.67671
G1 X34.603 Y142.616 E15.72744
G1 X34.61 Y142.417 E15.73407
G1 X34.622 Y139.875 E15.81861
G1 X34.569 Y137.504 E15.89749
G1 X34.57 Y137.07 E15.91193
G1 X34.59 Y136.163 E15.9421
G1 X34.632 Y134.942 E15.98274
G1 X34.647 Y132.392 E16.06755
G1 X34.617 Y131.002 E16.11379
G1 X34.612 Y130.346 E16.13561
G1 X34.615 Y130.028 E16.14619
G1 X34.626 Y129.546 E16.16223
G1 X34.692 Y127.612 E16.22659
G1 X34.708 Y125.055 E16.31164
G1 X34.654 Y122.57 E16.39431
G1 X34.607 Y121.606 E16.42641
G1 X34.575 Y120.714 E16.4561
G1 X34.581 Y119.819 E16.48586
G1 X34.652 Y118.382 E16.53372
G1 X34.66 Y118.25 E16.53812
G1 X34.75 Y115.693 E16.62321
G1 X34.766 Y113.182 E16.70673
G1 X34.711 Y110.638 E16.79137
G1 X34.581 Y108.041 E16.87785
G1 X34.568 Y107.591 E16.89282
G1 X34.563 Y106.766 E16.92026
G1 X34.573 Y105.499 E16.96241
G1 X34.52 Y102.956 E17.047
G1 X34.396 Y100.448 E17.13052
G1 X34.2 Y97.923 E17.21476
G1 X33.921 Y95.302 E17.30242
G1 X33.863 Y94.383 E17.33305
G1 X33.921 Y93.057 E17.3772
G1 X34.058 Y91.774 E17.42011
G1 X34.099 Y91.43 E17.43163
G1 X34.327 Y88.955 E17.5143
G1 X34.49 Y86.38 E17.60012
G1 X34.578 Y83.897 E17.68275
G1 X34.595 Y81.356 E17.76727
G1 X34.576 Y80.425 E17.79824
G1 X34.568 Y79.411 E17.83197
G1 X34.601 Y78.491 E17.86259
G1 X34.713 Y77.577 E17.89322
G1 X34.905 Y76.676 E17.92386
G1 X35.174 Y75.796 E17.95446
G1 X35.518 Y74.942 E17.98508
G1 X35.935 Y74.121 E18.01571
G1 X36.421 Y73.339 E18.04633
G1 X36.974 Y72.603 E18.07695
G1 X37.47 Y72.04 E18.10191
G1 X37.736 Y71.759 E18.11478
G1 X37.939 Y71.551 E18.12444
G1 X44.369 Y65.122 E18.42687
G1 X44.864 Y64.642 E18.4498
G1 X45.201 Y64.326 E18.46517
G1 X45.591 Y63.982 E18.48246
G1 X45.947 Y63.683 E18.49793
G1 X46.903 Y62.968 E18.53763
G0 F6000 X47.124 Y63.301
G1 F1200 X47.457 Y63.08 E18.55093
G1 X47.714 Y62.915 E18.56108
G1 X47.986 Y62.746 E18.57173
G1 X48.992 Y62.197 E18.60985
G1 X49.333 Y62.035 E18.62241
G1 X49.596 Y61.915 E18.63202
G1 X49.9 Y61.781 E18.64307
G1 X51.005 Y61.368 E18.68231
G1 X51.384 Y61.251 E18.6955
G1 X51.621 Y61.181 E18.70372
G1 X51.922 Y61.096 E18.71412
G1 X53.102 Y60.837 E18.7543
G1 X53.488 Y60.776 E18.7673
G1 X53.78 Y60.734 E18.77711
G1 X54.099 Y60.693 E18.78781
G1 X55.231 Y60.611 E18.82556
G1 X55.595 Y60.605 E18.83767
G1 X55.908 Y60.605 E18.84808
G1 X56.259 Y60.61 E18.85976
G1 X57.393 Y60.689 E18.89756
G1 X57.757 Y60.735 E18.90977
G1 X58.083 Y60.782 E18.92072
G1 X58.422 Y60.836 E18.93214
G1 X59.546 Y61.081 E18.9704
G1 X59.935 Y61.189 E18.98383
G1 X60.184 Y61.261 E18.99245
G1 X60.469 Y61.348 E19.00236
G1 X61.616 Y61.775 E19.04307
G1 X62.014 Y61.951 E19.05754
G1 X62.258 Y62.063 E19.06647
G1 X62.528 Y62.191 E19.07641
G1 X63.536 Y62.74 E19.11459
G1 X63.831 Y62.923 E19.12613
G1 X64.098 Y63.095 E19.1367
G1 X64.375 Y63.279 E19.14776
G1 X65.296 Y63.969 E19.18603
G1 X65.623 Y64.244 E19.20024
G1 X66.112 Y64.682 E19.22208
G1 X67.096 Y65.624 E19.26738
G1 X77.376 Y75.902 E19.75088
G1 X77.848 Y76.387 E19.77339
G1 X78.448 Y77.062 E19.80342
G1 X78.987 Y77.787 E19.83347
G1 X79.459 Y78.556 E19.86348
G1 X79.862 Y79.365 E19.89354
G1 X80.191 Y80.206 E19.92358
G1 X80.445 Y81.072 E19.9536
G1 X80.621 Y81.958 E19.98364
G1 X80.718 Y82.856 E20.01368
G1 X80.735 Y83.759 E20.04372
G1 X80.708 Y84.288 E20.06134
G1 X80.598 Y85.692 E20.10818
G1 X80.593 Y85.746 E20.10998
G1 X80.43 Y88.323 E20.19587
G1 X80.341 Y90.857 E20.2802
G1 X80.324 Y93.395 E20.36461
G1 X80.378 Y95.958 E20.44988
G1 X80.503 Y98.462 E20.53327
G1 X80.708 Y101.083 E20.62071
G1 X80.738 Y101.985 E20.65072
G1 X80.708 Y102.669 E20.6735
G1 X80.662 Y103.255 E20.69305
G1 X80.492 Y105.939 E20.7825
G1 X80.402 Y108.478 E20.867
G1 X80.385 Y111.01 E20.95121
G1 X80.44 Y113.581 E21.03674
G1 X80.562 Y116.055 E21.11913
G1 X80.672 Y117.467 E21.16624
G1 X80.719 Y118.209 E21.19096
G1 X80.719 Y119.498 E21.23384
G1 X80.551 Y122.154 E21.32235
G1 X80.462 Y124.69 E21.40675
G1 X80.445 Y127.224 E21.49103
G1 X80.501 Y129.801 E21.57677
G1 X80.628 Y132.375 E21.66248
G1 X80.717 Y133.741 E21.70801
G1 X80.727 Y134.893 E21.74633
G1 X80.686 Y135.714 E21.77367
G1 X80.602 Y137.039 E21.81783
G1 X80.512 Y139.604 E21.90319
G1 X80.495 Y142.139 E21.98751
G1 X80.55 Y144.71 E22.07304
G1 X80.678 Y147.265 E22.15813
G1 X80.718 Y147.892 E22.17902
G1 X80.736 Y148.795 E22.20906
G1 X80.674 Y149.696 E22.2391
G1 X80.533 Y150.588 E22.26914
G1 X80.313 Y151.464 E22.29918
G1 X80.017 Y152.317 E22.32921
G1 X79.647 Y153.14 E22.35922
G1 X79.205 Y153.928 E22.38927
G1 X78.695 Y154.673 E22.4193
G1 X77.998 Y155.505 E22.4554
G1 X77.79 Y155.728 E22.46554
